!!!!SEGMENT: pl-sa--152-a-iv-2--002_bauer--missa-in-f-gloria.krn
!!!cenid: 17xx:673
!!!COM: Bauer
!!!COM-rismID:
!!!CDT:
!!!CNT:
!!!OPR: Missa in F
!!!OTL: Gloria
!!!OMV: 002
!!!PDT:
!!!AGN: Sacred; Mass
!!!SMS-siglum: PL-SA
!!!SMS-shelfmark: 152/A IV 2
!!!SMS-shelfwork: 001-002 M
!!!SMS-variant:
!!!SMS-altvar:
!!!NIFC-rismSourceID: 1001035512
!!!NIFC-islandoraID:
!!!URL-pdf-islandora:
!!!URL-scan: https://bc.bdsandomierz.pl/dlibra/publication/1538/edition/1506/content @EN{Scan on Cyfrowa Biblioteka Diecezjalna w Sandomierzu} @PL{Skany w portalu Cyfrowa Biblioteka Diecezjalna w Sandomierzu}
!!!ONB-nifc: UWAGA: części Mszy: Kyrie, Gloria, Credo, Sanctus, Benedictus, Agnus Dei, Dona nobis
!!!AIN: 4 empty 1 flt 1 tenor 2 violn 1 vox
!!!key:
**kern	**kern	**dynam	**kern	**dynam	**kern	**text	**kern	**text	**kern	**text	**kern	**kern	**kern
*part9	*part8	*part8	*part7	*part7	*part6	*part6	*part5	*part5	*part4	*part4	*part3	*part2	*part1
*group3	*group3	*	*group3	*	*group2	*	*group2	*	*group2	*	*group1	*group1	*
*staff9	*staff8	*	*staff7	*	*staff6	*staff6	*staff5	*staff5	*staff4	*staff4	*staff3	*staff2	*staff1
*Iempty	*Ivioln	*	*Ivioln	*	*Iempty	*	*Itenor	*	*Ivox	*	*Iempty	*Iempty	*Iflt
*I"Fundamento	*I"Violino Secondo:	*	*I"Violino Primo	*	*I"Baſso.	*	*I"Tenore	*	*I"Canto	*	*I"Cornu Secondo: in F	*I"Cornu Primo in F	*I"Flauto Primo
*I'fund.	*I'vn 2	*	*I'vn 1	*	*I'B	*	*I'T	*	*I'S	*	*I'cor 2	*I'cor 1	*I'fl 1
*clefF4	*clefG2	*	*clefG2	*	*clefF4	*	*clefC4	*	*clefC1	*	*clefG2	*clefG2	*clefG2
*	*	*	*	*	*	*	*	*	*	*	*ITrd4c7	*ITrd4c7	*
*k[b-]	*k[b-]	*	*k[b-]	*	*k[b-]	*	*k[b-]	*	*k[b-]	*	*k[b-]	*k[b-e-]	*k[b-]
*F:	*F:	*	*F:	*	*F:	*	*F:	*	*F:	*	*	*	*F:
*M4/4	*M4/4	*	*M4/4	*	*M4/4	*	*M4/4	*	*M4/4	*	*M4/4	*M4/4	*M4/4
*met(c)	*met(c)	*	*met(c)	*	*met(c)	*	*met(c)	*	*met(c)	*	*met(c)	*met(c)	*met(c)
=1	=1	=1	=1	=1	=1	=1	=1	=1	=1	=1	=1	=1	=1
!LO:TX:a:i:t=Allo&colon;	!LO:TX:a:i:t=Allo&colon;	!	!LO:TX:a:i:t=Allo&colon;	!	!LO:TX:a:i:t=Allo&colon;	!	!LO:TX:a:i:t=allo	!	!	!	!LO:TX:a:i:t=Allo&colon;	!LO:TX:a:i:t=Allo&colon;	!LO:TX:a:i:t=Allo
4F\	4a\	.	4ff 4a\	.	00r	.	00r	.	00r	.	4A/	4f\	4fff\
4C\	16cc\LL	.	16aa\LL	.	.	.	.	.	.	.	4c/	4g\	4eee\
.	16b-\	.	16gg\	.	.	.	.	.	.	.	.	.	.
.	16a\	.	16ff\	.	.	.	.	.	.	.	.	.	.
.	16g\JJ	.	16ee\JJ	.	.	.	.	.	.	.	.	.	.
!	!LO:TX:a:t=P:problem=mixed beam	!	!LO:TX:a:t=P:problem=mixed beam	!	!	!	!	!	!	!	!	!	!
4FF/	8a\L	.	8ff\L	.	.	.	.	.	.	.	4A/	4f\	4fff\
.	8A/	.	8f'/	.	.	.	.	.	.	.	.	.	.
4r	8c/	.	8a'/	.	.	.	.	.	.	.	4r	4r	4r
.	8f/J	.	8cc'/J	.	.	.	.	.	.	.	.	.	.
=2	=2	=2	=2	=2	=2	=2	=2	=2	=2	=2	=2	=2	=2
*	*	*	*^	*	*	*	*	*	*	*	*	*	*
4F\	4ff\	.	4aa/	4cc\	.	.	.	.	.	.	.	4f\	4a\	4fff\
4C\	16aa\LL	.	16ccc\LL	4ryy	.	.	.	.	.	.	.	4g\	4b-\	4eee\
.	16gg\	.	16bb-\	.	.	.	.	.	.	.	.	.	.	.
.	16ff\	.	16aa\	.	.	.	.	.	.	.	.	.	.	.
.	16ee\JJ	.	16gg\JJ	.	.	.	.	.	.	.	.	.	.	.
!	!LO:TX:a:t=P:problem=mixed beam	!	!LO:TX:a:t=P:problem=mixed beam	!	!	!	!	!	!	!	!	!	!	!
4FF/	8ff\L	.	8aa\L	2ryy	.	.	.	.	.	.	.	4f\	4a\	4fff\
.	8f/	.	8a'/	.	.	.	.	.	.	.	.	.	.	.
4r	8a/	.	8cc'/	.	.	.	.	.	.	.	.	4r	4r	4r
.	8cc/J	.	8ff'/J	.	.	.	.	.	.	.	.	.	.	.
*	*	*	*v	*v	*	*	*	*	*	*	*	*	*	*
=3	=3	=3	=3	=3	=3	=3	=3	=3	=3	=3	=3	=3	=3
!	!	!	!	!	!	!	!	!	!	!	!	!	!LO:TX:a:t=P:problem=piony harmoniczne w tym takcie się nie zgadzają
4F\	4aa\	.	4ccc\	.	.	.	.	.	.	.	4a\	4cc\	4ccc\
4A\	8bb-\L	.	8ddd\L	.	.	.	.	.	.	.	4f\	4b-\	4ddd\
.	8aa\J	.	8ccc\J	.	.	.	.	.	.	.	.	.	.
4F\	4aa\	.	4ccc\	.	.	.	.	.	.	.	4a\	4cc\	4eee\
4A\	8gg\L	.	8aa\L	.	.	.	.	.	.	.	4f\	4a\	4ccc\
.	8ff\J	.	8ff\J	.	.	.	.	.	.	.	.	.	.
=4	=4	=4	=4	=4	=4	=4	=4	=4	=4	=4	=4	=4	=4
8G\L	8gg\L	.	8bb-\L	.	.	.	.	.	.	.	8g\L	8b-\L	8bb-\L
8F\	8ff\	.	8aa\	.	.	.	.	.	.	.	8f\	8a\	8aa\
8E\	8gg\	.	8bb-\	.	.	.	.	.	.	.	8g\	8b-\	8bb-\
8F\J	8ff\J	.	8aa\J	.	.	.	.	.	.	.	8f\J	8a\J	8aa\J
4c\	4ee\	.	4gg\	.	.	.	.	.	.	.	4c/	4g\	4gg\
4r	4r	.	4r	.	.	.	.	.	.	.	4r	4r	4r
=5	=5	=5	=5	=5	=5	=5	=5	=5	=5	=5	=5	=5	=5
!	!	!	!	!	!LO:TX:b:t=P:problem="G" przed kluczem	!	!LO:TX:b:t=P:problem="G" przed kluczem	!	!LO:TX:b:t=P:problem="G" przed kluczem	!	!	!	!LO:TX:a:t=P:problem=takty 5-8 zapisane repetycją
4f\	4a\	.	4ff 4a/	.	4f\	[G]lo-	4f\	[G]lo-	4ff\	[G]lo-	4A/	4f\	4fff\yy
4c\	16cc\LL	.	16aa\LL	.	4c\	-ri-	4c\	-ri-	4ee\	-ri-	4c/	4g\	4eee\yy
.	16b-\	.	16gg\	.	.	.	.	.	.	.	.	.	.
.	16a\	.	16ff\	.	.	.	.	.	.	.	.	.	.
.	16g\JJ	.	16ee\JJ	.	.	.	.	.	.	.	.	.	.
!	!	!	!LO:TX:a:t=P:problem=mixed beam	!	!	!	!	!	!	!	!	!	!
4F\	8a/L	.	8ff\L	.	4F\	-a	4F/	-a	4ff\	-a	4A/	4f\	4fff\yy
.	8A/	.	8f'/	.	.	.	.	.	.	.	.	.	.
4r	8c/	.	8a'/	.	4r	.	4r	.	4r	.	4r	4r	4ryy
.	8f/J	.	8cc'/J	.	.	.	.	.	.	.	.	.	.
!	!LO:LB:g=original	!	!	!	!	!	!	!	!	!	!	!	!
=6	=6	=6	=6	=6	=6	=6	=6	=6	=6	=6	=6	=6	=6
*	*	*	*	*	*	*	*	*	*	*ij	*	*	*
4f\	4ff\	.	4aa 4cc\	.	4f\	glo-	4f\	Glo-	4aa\	Glo-	4f\	4a\	4fff\yy
4c\	16aa\LL	.	16ccc\LL	.	4c\	-ri-	4c\	-ri-	4gg\	-ri-	4g\	4b-\	4eee\yy
.	16gg\	.	16bb-\	.	.	.	.	.	.	.	.	.	.
.	16ff\	.	16aa\	.	.	.	.	.	.	.	.	.	.
.	16ee\JJ	.	16gg\JJ	.	.	.	.	.	.	.	.	.	.
!	!LO:TX:a:t=P:problem=mixed beam	!	!LO:TX:a:t=P:problem=mixed beam	!	!	!	!	!	!	!	!	!	!
4F\	8ff\L	.	8aa\L	.	4F\	-a	4F/	-a	4aa\	-a	4f\	4a\	4fff\yy
*	*	*	*	*	*	*	*	*	*	*Xij	*	*	*
.	8f/	.	8a'/	.	.	.	.	.	.	.	.	.	.
4r	8a/	.	8cc'/	.	4r	.	4r	.	4r	.	4r	4r	4ryy
.	8cc/J	.	8ff'/J	.	.	.	.	.	.	.	.	.	.
!	!	!	!LO:LB:g=original	!	!	!	!	!	!	!	!	!	!
=7	=7	=7	=7	=7	=7	=7	=7	=7	=7	=7	=7	=7	=7
!	!	!	!	!	!	!	!	!	!	!	!	!	!LO:TX:a:t=P:problem=piony harmoniczne w tym takcie się nie zgadzają
4f\	4aa\	.	4ccc\	.	4F\	in	4F/	in	4cc\	in	4a\	4cc\	4ccc\yy
4c\	8bb-\L	.	8ddd\L	.	4A\	ex-	4A/	ex-	8dd\L	ex-	4f\	4a\	4ddd\yy
.	8aa\J	.	8ccc\J	.	.	.	.	.	8cc\J	.	.	.	.
4A\	4aa\	.	4ccc\	.	4G\	-Cel-	4G/	-cel-	4cc\	-Cel-	4a\	4cc\	4ccc\yy
4F\	8gg\L	.	8aa\L	.	4C\	-sis	4C/	-sis	4ff\	-sis	4f\	4a\	4aa\yy
.	8ff\J	.	8ff\J	.	.	.	.	.	.	.	.	.	.
!LO:LB:g=original	!	!	!	!	!	!	!	!	!	!	!	!	!
=8	=8	=8	=8	=8	=8	=8	=8	=8	=8	=8	=8	=8	=8
8E\L	8gg\L	.	8bb-\L	.	8G\L	De-	8G/L	De-	(4gg\	De-	8g\L	8b-\L	8bb-\Lyy
8F\	8ff\	.	8aa\	.	8F\	.	8F/	.	.	.	8f\	8a\	8aa\yy
8G\	8gg\	.	8bb-\	.	8G\	.	8G/	.	4ff\	.	8g\	8b-\	8bb-\yy
!LO:SIC:s=8F:v	!	!	!	!	!	!	!	!	!	!	!	!	!
8E\J	8ff\J	.	8aa\J	.	8F\J	.	8F/J	.	.	.	8f\J	8a\J	8aa\Jyy
!	!	!	!	!	!	!	!	!	!	!	!LO:LB:g=original	!	!
4C/	4ee\	.	4gg\	.	4C/	-o	4C/	-o,	4ee\)	-o	4c/	4g\	4gg\yy
4r	4r	.	4r	.	4r	.	4r	.	4r	.	4r	4r	4ryy
!	!	!	!	!	!	!	!	!	!	!	!	!LO:LB:g=original	!LO:LB:g=original
=9	=9	=9	=9	=9	=9	=9	=9	=9	=9	=9	=9	=9	=9
*	*tremolo	*	*	*	*	*	*	*	*	*	*	*	*
8E\L	16cc 16e/LL	.	4gg 4cc 4e/	.	4c\	et	4c\	et	4ee\	et	1c	1g	1eee
.	16cc 16e/	.	.	.	.	.	.	.	.	.	.	.	.
8C\	16cc 16e/	.	.	.	.	.	.	.	.	.	.	.	.
.	16cc 16e/	.	.	.	.	.	.	.	.	.	.	.	.
8E\	16cc 16e/	.	16bb-\LL	.	4c\	in	4c\	in	4ee\	in	.	.	.
.	16cc 16e/	.	16aa\	.	.	.	.	.	.	.	.	.	.
8C\J	16cc 16e/	.	16gg\	.	.	.	.	.	.	.	.	.	.
.	16cc 16e/JJ	.	16ff\JJ	.	.	.	.	.	.	.	.	.	.
*tremolo	*	*	*	*	*	*	*	*	*	*	*	*	*
*2\right	*	*	*	*	*	*	*	*	*	*	*	*	*
!LO:SIC:s=2Bn:v	!	!	!	!	!	!	!	!	!	!	!	!	!
8E\L	16cc 16e/LL	.	8ee\L	.	4c\	ter-	4c\	ter-	4ee\	ter-	.	.	.
.	16cc 16e/	.	.	.	.	.	.	.	.	.	.	.	.
8C\	16cc 16e/	.	8cc\	.	.	.	.	.	.	.	.	.	.
.	16cc 16e/	.	.	.	.	.	.	.	.	.	.	.	.
8E\	16cc 16e/	.	8g\	.	4c\	-ra	4c\	-ra	4ee\	-ra	.	.	.
.	16cc 16e/	.	.	.	.	.	.	.	.	.	.	.	.
8C\J	16cc 16e/	.	8e\J	.	.	.	.	.	.	.	.	.	.
.	16cc 16e/JJ	.	.	.	.	.	.	.	.	.	.	.	.
=10	=10	=10	=10	=10	=10	=10	=10	=10	=10	=10	=10	=10	=10
8E\L	16cc 16e/LL	.	8c/L	.	4c\	pax	4c\	pax	4ee\	pax	1c	1g	1eee
.	16cc 16e/	.	.	.	.	.	.	.	.	.	.	.	.
8C\	16cc 16e/	.	8e/	.	.	.	.	.	.	.	.	.	.
.	16cc 16e/	.	.	.	.	.	.	.	.	.	.	.	.
8E\	16cc 16e/	.	8g/	.	4c\	ho-	4c\	ho-	4ee\	ho-	.	.	.
.	16cc 16e/	.	.	.	.	.	.	.	.	.	.	.	.
8C\J	16cc 16e/	.	8cc/J	.	.	.	.	.	.	.	.	.	.
.	16cc 16e/JJ	.	.	.	.	.	.	.	.	.	.	.	.
8E\L	16cc 16e/LL	.	8ee\L	.	8c\	-mi-	8c\	-mi-	8ee\	-mi-	.	.	.
.	16cc 16e/	.	.	.	.	.	.	.	.	.	.	.	.
8C\	16cc 16e/	.	8gg\	.	8c\	-ni-	8c\	-ni-	8ee\	-ni-	.	.	.
.	16cc 16e/	.	.	.	.	.	.	.	.	.	.	.	.
8E\	16cc 16e/	.	8bbn\	.	4c\	-bus	4c\	-bus	4ee\	-bus	.	.	.
.	16cc 16e/	.	.	.	.	.	.	.	.	.	.	.	.
8C\J	16cc 16e/	.	8ccc\J	.	.	.	.	.	.	.	.	.	.
.	16cc 16e/JJ	.	.	.	.	.	.	.	.	.	.	.	.
*Xtremolo	*	*	*	*	*	*	*	*	*	*	*	*	*
!	!	!	!	!	!LO:LB:g=original	!	!	!	!	!	!	!	!
=11	=11	=11	=11	=11	=11	=11	=11	=11	=11	=11	=11	=11	=11
8D\L	16bn 16d/LL	.	4ff\	.	4Bn\	bo-	4Bn\	bo-	4dd\	bo-	1f	1a	1ddd
.	16bn 16d/	.	.	.	.	.	.	.	.	.	.	.	.
8GG\	16bn 16d/	.	.	.	.	.	.	.	.	.	.	.	.
.	16bn 16d/	.	.	.	.	.	.	.	.	.	.	.	.
!	!	!	!	!	!LO:SIC:l:s=-nae:v	!	!	!	!LO:SIC:l:s=-nae:v	!	!	!	!
8D\	16bn 16d/	.	16aa\LL	.	4B\	-ne	4B\	-nae	4dd\	-ne	.	.	.
.	16bn 16d/	.	16gg\	.	.	.	.	.	.	.	.	.	.
8GG\J	16bn 16d/	.	16ff\	.	.	.	.	.	.	.	.	.	.
.	16bn 16d/JJ	.	16ee\JJ	.	.	.	.	.	.	.	.	.	.
*tremolo	*	*	*	*	*	*	*	*	*	*	*	*	*
!	!	!	!LO:TX:a:t=P:problem=mixed beam	!	!	!	!	!	!	!	!	!	!
8D\L	16b 16d/LL	.	8dd\L	.	4B\	Vo-	4B\	vo-	4dd\	vo-	.	.	.
.	16b 16d/	.	.	.	.	.	.	.	.	.	.	.	.
8GG\	16b 16d/	.	8G/	.	.	.	.	.	.	.	.	.	.
.	16b 16d/	.	.	.	.	.	.	.	.	.	.	.	.
8D\	16b 16d/	.	8Bn/	.	4B\	-lun-	4B\	-lun-	4dd\	-lun-	.	.	.
.	16b 16d/	.	.	.	.	.	.	.	.	.	.	.	.
8GG\J	16b 16d/	.	8d/J	.	.	.	.	.	.	.	.	.	.
.	16b 16d/JJ	.	.	.	.	.	.	.	.	.	.	.	.
!	!	!	!	!	!	!	!LO:LB:g=original	!	!LO:LB:g=original	!	!	!	!
=12	=12	=12	=12	=12	=12	=12	=12	=12	=12	=12	=12	=12	=12
!	!LO:SIC:n=1:s=2bn:v	!	!	!	!LO:TX:a:t=SIC:s=2Bn	!	!	!	!	!	!	!	!
*	*	*	*	*	*2\right	*	*2\right	*	*2\right	*	*	*	*
8D\L	16b- 16d/LL	.	8g'\L	.	2B-\	-ta-	2Bn\	-ta-	2dd\	-ta-	1f	1a	1ddd
.	16b- 16d/	.	.	.	.	.	.	.	.	.	.	.	.
8GG\	16b- 16d/	.	8bn'\	.	.	.	.	.	.	.	.	.	.
.	16b- 16d/	.	.	.	.	.	.	.	.	.	.	.	.
8D\	16b- 16d/	.	8dd'\	.	.	.	.	.	.	.	.	.	.
.	16b- 16d/	.	.	.	.	.	.	.	.	.	.	.	.
8GG\J	16b- 16d/	.	8gg'\J	.	.	.	.	.	.	.	.	.	.
.	16b- 16d/JJ	.	.	.	.	.	.	.	.	.	.	.	.
!	!LO:SIC:n=1:s=2bn:v	!	!	!	!LO:SIC:s=4Bn:v	!	!	!	!	!	!	!	!
8D\L	16b- 16d/LL	.	8bbn'\L	.	4B-\	-tis	4B\	-tis,	4dd\	-tis	.	.	.
.	16b- 16d/	.	.	.	.	.	.	.	.	.	.	.	.
8GG\	16b- 16d/	.	8ccc'\	.	.	.	.	.	.	.	.	.	.
.	16b- 16d/	.	.	.	.	.	.	.	.	.	.	.	.
!	!	!	!	!	!LO:SIC:s=4Bn:v	!	!	!	!	!	!	!	!
8D\	16b- 16d/	.	8ddd'\	.	4B-\	Lau-	4B\	lau-	4dd\	Lau-	.	.	.
.	16b- 16d/	.	.	.	.	.	.	.	.	.	.	.	.
8GG\J	16b- 16d/	.	8ff\J	.	.	.	.	.	.	.	.	.	.
.	16b- 16d/JJ	.	.	.	.	.	.	.	.	.	.	.	.
*Xtremolo	*	*	*	*	*	*	*	*	*	*	*	*	*
=13	=13	=13	=13	=13	=13	=13	=13	=13	=13	=13	=13	=13	=13
*	*2\right	*	*	*	*	*	*	*	*	*	*	*	*
8C\L	16cc\LL	.	16ee\LL	.	4c\	-da-	4c\	-da-	4cc\	-da-	1c	1g	4ccc\
.	16cc\	.	16ee\	.	.	.	.	.	.	.	.	.	.
8E\J	16cc\	.	16ee\	.	.	.	.	.	.	.	.	.	.
.	16cc\	.	16ee\JJ	.	.	.	.	.	.	.	.	.	.
*	*	*	*tremolo	*	*	*	*	*	*	*	*	*	*
4A\	16cc\	.	16ccc\LL	.	4c\	-mus	4c\	-mus	4aa\	-mus	.	.	4ccc\
.	16cc\	.	16ccc\	.	.	.	.	.	.	.	.	.	.
.	16cc\	.	16ccc\	.	.	.	.	.	.	.	.	.	.
.	16cc\JJ	.	16ccc\JJ	.	.	.	.	.	.	.	.	.	.
!	!	!	!	!	!	!	!	!	!	!	!	!	!LO:SIC:s=4bbn:v
4G\	16cc\LL	.	16bbn\LL	.	4Bn\	te	4Bn\	Te	4gg\	te	.	.	4bb-\
.	16cc\	.	16bbn\	.	.	.	.	.	.	.	.	.	.
.	16cc\	.	16bbn\	.	.	.	.	.	.	.	.	.	.
.	16cc\	.	16bbn\JJ	.	.	.	.	.	.	.	.	.	.
4F\	16cc\	.	16aa\LL	.	8A\	be-	8A/	be-	8ff\	be-	.	.	4aa\
.	16cc\	.	16aa\	.	.	.	.	.	.	.	.	.	.
.	16cc\	.	16aa\	.	8A\	-ne-	8A/	-ne-	8ff\	-ne-	.	.	.
.	16cc\JJ	.	16aa\JJ	.	.	.	.	.	.	.	.	.	.
!	!	!	!LO:PB:g=original	!	!	!	!	!	!	!	!	!	!
=14	=14	=14	=14	=14	=14	=14	=14	=14	=14	=14	=14	=14	=14
4E\	16cc\LL	.	16gg\LL	.	4G\	-di-	4G/	-di-	4ee\	-di-	1c	1g	4gg\
.	16cc\	.	16gg\	.	.	.	.	.	.	.	.	.	.
.	16cc\	.	16gg\	.	.	.	.	.	.	.	.	.	.
.	16cc\	.	16gg\JJ	.	.	.	.	.	.	.	.	.	.
4F\	16cc\	.	16aa\LL	.	8A\	-ci-	8A/	-ci-	8ff\	-ci-	.	.	4aa\
.	16cc\	.	16aa\	.	.	.	.	.	.	.	.	.	.
.	16cc\	.	16aa\	.	8A\	-mus	8A/	-mus	8ff\	-mus	.	.	.
.	16cc\JJ	.	16aa\JJ	.	.	.	.	.	.	.	.	.	.
4E\	16cc\LL	.	16gg\LL	.	4G\	te	4G/	Te	4ee\	te	.	.	4gg\
.	16cc\	.	16gg\	.	.	.	.	.	.	.	.	.	.
.	16cc\	.	16gg\	.	.	.	.	.	.	.	.	.	.
.	16cc\	.	16gg\JJ	.	.	.	.	.	.	.	.	.	.
4D\	16cc\	.	16ff\LL	.	8F\	a-	8F/	a-	8dd\	a-	.	.	4ff\
.	16cc\	.	16ff\	.	.	.	.	.	.	.	.	.	.
.	16cc\	.	16ff\	.	8F\	-do-	8F/	-do-	8dd\	-do-	.	.	.
.	16cc\JJ	.	16ff\JJ	.	.	.	.	.	.	.	.	.	.
=15	=15	=15	=15	=15	=15	=15	=15	=15	=15	=15	=15	=15	=15
*	*	*	*	*	*	*	*	*	*	*	*	*	*2\right
!	!	!	!	!	!	!	!	!	!	!	!LO:SIC:s=4G:v	!	!
8C\L	16cc 16e/LL	.	(32ee\LLL	.	4E\	-ra-	4E/	-ra-	2ee\	-ra-	4F/	4g\	2eee\
.	.	.	32ff\JJ	.	.	.	.	.	.	.	.	.	.
.	16cc 16e/	.	8.gg\J)	.	.	.	.	.	.	.	.	.	.
8C\	16cc 16e/	.	.	.	.	.	.	.	.	.	.	.	.
.	16cc 16e/	.	.	.	.	.	.	.	.	.	.	.	.
8E\	16cc 16e/	.	16ff\LL	.	4C\	-mus	4C/	-mus	.	.	4r	4r	.
.	16cc 16e/	.	16ee\	.	.	.	.	.	.	.	.	.	.
8E\J	16cc 16e/	.	16dd\	.	.	.	.	.	.	.	.	.	.
.	16cc 16e/JJ	.	16cc\JJ	.	.	.	.	.	.	.	.	.	.
!LO:LB:g=original	!	!	!	!	!	!	!	!	!	!	!	!	!
8F\L	16bn 16d/LL	.	(32dd\LLL	.	4G\	Te	4G/	Te	2dd\	-mus	2r	2r	2ddd\
.	.	.	32ee\JJ	.	.	.	.	.	.	.	.	.	.
.	16bn 16d/	.	8.ff\J)	.	.	.	.	.	.	.	.	.	.
8F\	16bn 16d/	.	.	.	.	.	.	.	.	.	.	.	.
.	16bn 16d/	.	.	.	.	.	.	.	.	.	.	.	.
8G\	16bn 16d/	.	16ee\LL	.	4GG/	.	4GG/	.	.	.	.	.	.
.	16bn 16d/	.	16dd\	.	.	.	.	.	.	.	.	.	.
8G\J	16bn 16d/	.	16cc\	.	.	.	.	.	.	.	.	.	.
.	16bn 16d/JJ	.	16bni\JJ	.	.	.	.	.	.	.	.	.	.
!	!LO:LB:g=original	!	!	!	!	!	!	!	!	!	!	!	!
=16	=16	=16	=16	=16	=16	=16	=16	=16	=16	=16	=16	=16	=16
4C\	16cc\LL	.	16cc\LL	.	4C/	.	4C/	.	4cc\	te	1g	1g	4ccc\
.	16cc\	.	16cc\	.	.	.	.	.	.	.	.	.	.
.	16cc\	.	16cc\	.	.	.	.	.	.	.	.	.	.
.	16cc\	.	16cc\JJ	.	.	.	.	.	.	.	.	.	.
4A\	16cc\	.	16ccc\LL	.	4c\	glo-	4c\	glo-	4aa\	glo-	.	.	4ccc\
.	16cc\	.	16ccc\	.	.	.	.	.	.	.	.	.	.
.	16cc\	.	16ccc\	.	.	.	.	.	.	.	.	.	.
.	16cc\JJ	.	16ccc\JJ	.	.	.	.	.	.	.	.	.	.
4G\	16cc\LL	.	16bbn\LL	.	4Bn\	-ri-	4Bn\	-ri-	4gg\	-ri-	.	.	4bbn\
.	16cc\	.	16bbn\	.	.	.	.	.	.	.	.	.	.
.	16cc\	.	16bbn\	.	.	.	.	.	.	.	.	.	.
.	16cc\	.	16bbn\JJ	.	.	.	.	.	.	.	.	.	.
4F\	16cc\	.	16aa\LL	.	4A\	-fi-	4A/	-fi-	4ff\	-fi-	.	.	4aa\
.	16cc\	.	16aa\	.	.	.	.	.	.	.	.	.	.
.	16cc\	.	16aa\	.	.	.	.	.	.	.	.	.	.
.	16cc\JJ	.	16aa\JJ	.	.	.	.	.	.	.	.	.	.
!	!	!	!	!	!LO:PB:g=original	!	!	!	!	!	!	!	!
=17	=17	=17	=17	=17	=17	=17	=17	=17	=17	=17	=17	=17	=17
4E\	16cc\LL	.	16gg\LL	.	4G\	-ca-	4G/	-ca-	4ee\	-ca-	1g	1g	4gg\
.	16cc\	.	16gg\	.	.	.	.	.	.	.	.	.	.
.	16cc\	.	16gg\	.	.	.	.	.	.	.	.	.	.
.	16cc\	.	16gg\JJ	.	.	.	.	.	.	.	.	.	.
4F\	16cc\	.	16aa\LL	.	4A\	.	4A/	.	4ff\	.	.	.	4aa\
.	16cc\	.	16aa\	.	.	.	.	.	.	.	.	.	.
.	16cc\	.	16aa\	.	.	.	.	.	.	.	.	.	.
.	16cc\JJ	.	16aa\JJ	.	.	.	.	.	.	.	.	.	.
4E\	16cc\LL	.	16gg\LL	.	4G\	.	4G/	.	4ee\	.	.	.	4gg\
.	16cc\	.	16gg\	.	.	.	.	.	.	.	.	.	.
.	16cc\	.	16gg\	.	.	.	.	.	.	.	.	.	.
.	16cc\	.	16gg\JJ	.	.	.	.	.	.	.	.	.	.
4D\	16cc\	.	16ff\LL	.	4F\	.	4F/	.	4dd\	.	.	.	4ff\
.	16cc\	.	16ff\	.	.	.	.	.	.	.	.	.	.
.	16cc\	.	16ff\	.	.	.	.	.	.	.	.	.	.
.	16cc\JJ	.	16ff\JJ	.	.	.	.	.	.	.	.	.	.
=18	=18	=18	=18	=18	=18	=18	=18	=18	=18	=18	=18	=18	=18
4C\	16cc\LL	.	(32ee\LLL	.	4E\	.	4E/	.	2ee\	.	4c/	4cc\	2eee\
.	.	.	32ff\JJ	.	.	.	.	.	.	.	.	.	.
.	16cc\	.	8.gg\J)	.	.	.	.	.	.	.	.	.	.
.	16cc\	.	.	.	.	.	.	.	.	.	.	.	.
.	16cc\	.	.	.	.	.	.	.	.	.	.	.	.
4E\	16cc\	.	16ff\LL	.	4C\	.	4C/	.	.	.	4r	4r	.
.	16cc\	.	16ee\	.	.	.	.	.	.	.	.	.	.
.	16cc\	.	16dd\	.	.	.	.	.	.	.	.	.	.
.	16cc\JJ	.	16cc\JJ	.	.	.	.	.	.	.	.	.	.
!	!	!	!LO:N:vis=32.	!	!	!	!	!	!	!	!	!	!
4F\	16bn\LL	.	(32dd\LLL	.	4G\	.	4G/	.	2dd\	.	2r	2r	2ddd\
.	.	.	32ee\JJ	.	.	.	.	.	.	.	.	.	.
!	!	!	!LO:N:vis=8	!	!	!	!	!	!	!	!	!	!
.	16bn\	.	8.ff\J)	.	.	.	.	.	.	.	.	.	.
.	16bn\	.	.	.	.	.	.	.	.	.	.	.	.
.	16bn\	.	.	.	.	.	.	.	.	.	.	.	.
4G\	16bn\	.	16ee\LL	.	4GG/	-mus	4GG/	-mus	.	.	.	.	.
.	16bn\	.	16dd\	.	.	.	.	.	.	.	.	.	.
.	16bn\	.	16cc\	.	.	.	.	.	.	.	.	.	.
.	16bn\JJ	.	16bn\JJ	.	.	.	.	.	.	.	.	.	.
*	*Xtremolo	*	*	*	*	*	*	*	*	*	*	*	*
=19	=19	=19	=19	=19	=19	=19	=19	=19	=19	=19	=19	=19	=19
4c\	4cc 4e 4G/	.	4cc 4e/	.	4C/	te	4C/	Te;	4cc\	.	4c/	4cc\	4ccc\
16G\LL	4cc 4e 4G/	.	4cc 4e/	.	4r	.	4r	.	4cc\	-mus	4c/	4cc\	4ccc\
16F\	.	.	.	.	.	.	.	.	.	.	.	.	.
16E\	.	.	.	.	.	.	.	.	.	.	.	.	.
16D\JJ	.	.	.	.	.	.	.	.	.	.	.	.	.
4C\	4cc 4e 4G/	.	4cc 4e/	.	2r	.	2r	.	4cc\	te	4c/	4cc\	4ccc\
4r	4r	.	4r	.	.	.	.	.	4r	.	4r	4r	4r
!	!	!	!	!	!	!	!LO:LB:g=original	!	!LO:LB:g=original	!	!	!	!
=20	=20	=20	=20	=20	=20	=20	=20	=20	=20	=20	=20	=20	=20
!LO:TX:a:t=8.	!	!LO:DY:b:rj	!	!LO:DY:b:rj:t=p.	!	!	!	!	!	!	!	!LO:TX:a:t=8.	!LO:TX:a:i:t=Solo
00r	4cc\	p	4cc\	p	2e\	Gra-	2e\	Gra-	2gg\	Gra-	00r	00r	2gg\
.	4g\	.	4c/	.	.	.	.	.	.	.	.	.	.
.	4e\	.	4e/	.	4e\	.	4e\	.	8gg\L	.	.	.	8gg\L
.	.	.	.	.	.	.	.	.	8ff\	.	.	.	8ff\
.	4g\	.	4g/	.	4d\	.	4d\	.	8ee\	.	.	.	8ee\
.	.	.	.	.	.	.	.	.	8dd\J	.	.	.	8dd\J
=21	=21	=21	=21	=21	=21	=21	=21	=21	=21	=21	=21	=21	=21
.	4cc\	.	4cc\	.	8c\	.	8c\	.	8.ee\	.	.	.	8ee\L
.	.	.	.	.	8d\	-ti-	8d\	-ti-	.	.	.	.	8ff\J
.	.	.	.	.	.	.	.	.	16ff\	-ti-	.	.	.
.	4g\	.	4g/	.	4e\	-as	4e\	-as	4gg\	-as	.	.	4gg\
.	4e\	.	4e/	.	2r	.	2r	.	2r	.	.	.	8ccc\L
.	.	.	.	.	.	.	.	.	.	.	.	.	8eee\
.	4c/	.	4c/	.	.	.	.	.	.	.	.	.	8gg\
.	.	.	.	.	.	.	.	.	.	.	.	.	8ee\J
!	!	!	!LO:LB:g=original	!	!	!	!	!	!	!	!	!	!LO:LB:g=original
=22	=22	=22	=22	=22	=22	=22	=22	=22	=22	=22	=22	=22	=22
.	4g/	.	4g/	.	2d\	a-	2d\	a-	2ff\	A-	.	.	2ff\
.	4G/	.	4G/	.	.	.	.	.	.	.	.	.	.
.	4Bn/	.	4Bn/	.	4d\	-gi-	4d\	-gi-	4ff\	-gi-	.	.	4ff\
.	4d/	.	4d/	.	4c\	-mus	4c\	-mus	4ee\	-mus	.	.	4ee\
=23	=23	=23	=23	=23	=23	=23	=23	=23	=23	=23	=23	=23	=23
.	4g/	.	4g/	.	8Bn\L	ti-	8Bn\L	ti-	8.dd\L	ti-	.	.	8dd\L
.	.	.	.	.	8c\J	.	8c\J	.	.	.	.	.	8ee\J
.	.	.	.	.	.	.	.	.	16ee\Jk	.	.	.	.
.	4d/	.	4d/	.	4d\	-bi	4d\	-bi	4ff\	-bi	.	.	4ff\
.	4Bn/	.	4Bn/	.	4r	.	4r	.	4r	.	.	.	8ddd\L
.	.	.	.	.	.	.	.	.	.	.	.	.	8bbn\
.	4G/	.	4G/	.	8c\	pro-	8c\	pro-	8ee\	pro-	.	.	8gg\
.	.	.	.	.	8c\	-pter	8c\	-pter	8ee\	-pter	.	.	8ff\J
!	!	!	!	!	!LO:LB:g=original	!	!	!	!	!	!	!	!
=24	=24	=24	=24	=24	=24	=24	=24	=24	=24	=24	=24	=24	=24
00r	4c/	.	4c/	.	4c\	Ma-	4c\	ma-	4ee\	ma-	00r	00r	4eee\
.	4cc\	.	4cc\	.	4Bn\	-gnam	4Bn\	-gnam	4dd\	-gnam	.	.	4ddd\
.	4g/	.	4g/	.	4d\	glo-	4d\	Glo-	4ff\	Glo-	.	.	4fff\
.	4G/	.	4G/	.	8d\	-ri-	8d\	-ri-	8ff\	-ri-	.	.	8fff\L
.	.	.	.	.	8d\	-am	8d\	-am	8ff\	-am	.	.	8fff\J
!	!LO:LB:g=original	!	!	!	!	!	!	!	!	!	!	!	!
=25	=25	=25	=25	=25	=25	=25	=25	=25	=25	=25	=25	=25	=25
.	4c/	.	4c/	.	4d\	tu-	4d\	tu-	4ff\	tu-	.	.	4fff\
.	4cc\	.	4cc\	.	4c\	-am	4c\	-am	4ee\	-am	.	.	4eee\
.	4g/	.	4g/	.	4e\	pro-	4e\	pro-	4gg\	pro-	.	.	8gg\L
.	.	.	.	.	.	.	.	.	.	.	.	.	8ee\
.	4G/	.	4G/	.	4e\	-pter	4e\	-pter	4gg\	-pter	.	.	8gg\
.	.	.	.	.	.	.	.	.	.	.	.	.	8ee\J
=26	=26	=26	=26	=26	=26	=26	=26	=26	=26	=26	=26	=26	=26
.	4c/	.	4c/	.	4f\	glo-	4f\	Glo-	4aa\	Ma-	.	.	4aa\
.	4e/	.	4e/	.	8e\	-ri-	8e\	-ri-	8gg\	-gnam	.	.	8gg\L
.	.	.	.	.	8d\	-am	8d\	-am	8ff\	glo-	.	.	8ff\J
.	4f/	.	4f/	.	4c\	tu-	4c\	tu-	4ee\	-ri-	.	.	4ee\
.	4g/	.	4g/	.	4Bn\	.	4Bn\	.	4dd\	-am	.	.	4dd\
!	!	!	!	!	!	!	!LO:LB:g=original	!	!LO:LB:g=original	!	!	!	!
=27	=27	=27	=27	=27	=27	=27	=27	=27	=27	=27	=27	=27	=27
.	4c/	.	4c/	.	4c\	.	4c\	.	4ee\	tu-	.	.	4ee\
*	*	*	*	*	*	*	*	*	*Xtuplet	*	*	*	*
.	4G/	.	4G/	.	4Bn\	.	4Bn\	.	12ff\L	.	.	.	4ggg\
.	.	.	.	.	.	.	.	.	12ee\	.	.	.	.
.	.	.	.	.	.	.	.	.	12dd\J	.	.	.	.
.	4c/	.	4c/	.	4c\	-am	4c\	-am	4cc\	-am	.	.	4eee\
.	4r	.	4r	.	4r	.	4r	.	4r	.	.	.	4r
=28	=28	=28	=28	=28	=28	=28	=28	=28	=28	=28	=28	=28	=28
*	*tremolo	*	*	*	*	*	*	*	*	*	*	*	*
!	!	!	!	!LO:DY:b:t=for	!	!	!	!	!	!	!	!	!
8G\L	16bn 16d/LL	.	(16dd\LL	f	4Bn\	Do-	4Bn\	Do-	4dd\	Do-	1g	1b	1ddd
.	16bn 16d/	.	16ee\	.	.	.	.	.	.	.	.	.	.
8Bn\	16bn 16d/	.	16ff\	.	.	.	.	.	.	.	.	.	.
.	16bn 16d/	.	16ee\JJ)	.	.	.	.	.	.	.	.	.	.
8G\	16bn 16d/	.	4dd\	.	8B\	-mi-	8B\	-mi-	8.dd\	-mi-	.	.	.
.	16bn 16d/	.	.	.	.	.	.	.	.	.	.	.	.
8B\J	16bn 16d/	.	.	.	8B\	-ne	8B\	-ne	.	.	.	.	.
.	16bn 16d/JJ	.	.	.	.	.	.	.	16dd\	-ne	.	.	.
*tremolo	*	*	*	*	*	*	*	*	*	*	*	*	*
8G\L	16b 16d/LL	.	8r	.	4B\	De-	4B\	De-	4dd\	De-	.	.	.
.	16b 16d/	.	.	.	.	.	.	.	.	.	.	.	.
8B\	16b 16d/	.	8g'\L	.	.	.	.	.	.	.	.	.	.
.	16b 16d/	.	.	.	.	.	.	.	.	.	.	.	.
8G\	16b 16d/	.	8bn'\	.	4B\	-us	4B\	-us	4dd\	-us	.	.	.
.	16b 16d/	.	.	.	.	.	.	.	.	.	.	.	.
8B\J	16b 16d/	.	8dd'\J	.	.	.	.	.	.	.	.	.	.
.	16b 16d/JJ	.	.	.	.	.	.	.	.	.	.	.	.
=29	=29	=29	=29	=29	=29	=29	=29	=29	=29	=29	=29	=29	=29
*	*	*	*tremolo	*	*	*	*	*	*	*	*	*	*
!	!LO:SIC:n=1:s=2bn:v	!	!	!	!LO:SIC:s=4Bn:v	!	!LO:SIC:s=4Bn:v	!	!	!	!	!	!
8G\L	16b- 16d/LL	.	16ff\LL	.	4B-\	Rex	4B-\	Rex	4dd\	Rex	1g	1b-	1ddd
.	16b- 16d/	.	16ff\	.	.	.	.	.	.	.	.	.	.
8Bn\	16b- 16d/	.	16ff\	.	.	.	.	.	.	.	.	.	.
.	16b- 16d/	.	16ff\JJ	.	.	.	.	.	.	.	.	.	.
!	!	!	!	!	!LO:SIC:s=4Bn:v	!	!LO:SIC:s=4Bn:v	!	!	!	!	!	!
!	!	!	!	!	!LO:SIC:l:s=coe-:v	!	!	!	!	!	!	!	!
8G\	16b- 16d/	.	16ddd\LL	.	4B-\	ce-	4B-\	Coe-	4dd\	Coe-	.	.	.
.	16b- 16d/	.	16ddd\	.	.	.	.	.	.	.	.	.	.
8Bn\J	16b- 16d/	.	16ddd\	.	.	.	.	.	.	.	.	.	.
.	16b- 16d/JJ	.	16ddd\JJ	.	.	.	.	.	.	.	.	.	.
!	!LO:SIC:n=1:s=2bn:v	!	!	!	!LO:SIC:s=4Bn:v	!	!LO:SIC:s=4Bn:v	!	!	!	!	!	!
8G\L	16b- 16d/LL	.	16bbn\LL	.	4B-\	-leſ-	4B-\	-les-	4ff\	-les-	.	.	.
.	16b- 16d/	.	16bbn\	.	.	.	.	.	.	.	.	.	.
8B\	16b- 16d/	.	16bbn\	.	.	.	.	.	.	.	.	.	.
.	16b- 16d/	.	16bbn\JJ	.	.	.	.	.	.	.	.	.	.
!	!	!	!	!	!LO:SIC:s=4Bn:v	!	!LO:SIC:s=4Bn:v	!	!	!	!	!	!
8G\	16b- 16d/	.	16ff\LL	.	4B-\	-tis	4B-\	-tis	4dd\	-tis	.	.	.
.	16b- 16d/	.	16ff\	.	.	.	.	.	.	.	.	.	.
8B\J	16b- 16d/	.	16ff\	.	.	.	.	.	.	.	.	.	.
.	16b- 16d/JJ	.	16ff\JJ	.	.	.	.	.	.	.	.	.	.
!	!	!	!	!	!LO:LB:g=original	!	!	!	!	!	!	!	!
=30	=30	=30	=30	=30	=30	=30	=30	=30	=30	=30	=30	=30	=30
8G\L	16cc 16e/LL	.	16ee\LL	.	4c\	De-	4c\	De-	4ee\	De-	1g	1cc	1eee
.	16cc 16e/	.	16ff\	.	.	.	.	.	.	.	.	.	.
8c|	16cc 16e/	.	16gg\	.	.	.	.	.	.	.	.	.	.
.	16cc 16e/	.	16ff\JJ	.	.	.	.	.	.	.	.	.	.
8G\	16cc 16e/	.	4ee\	.	4c\	-us	4c\	-us	4ee\	-us	.	.	.
.	16cc 16e/	.	.	.	.	.	.	.	.	.	.	.	.
8c\J	16cc 16e/	.	.	.	.	.	.	.	.	.	.	.	.
.	16cc 16e/JJ	.	.	.	.	.	.	.	.	.	.	.	.
8G\L	16cc 16e/LL	.	8r	.	4c\	Pa-	4c\	Pa-	4ee\	Pa-	.	.	.
.	16cc 16e/	.	.	.	.	.	.	.	.	.	.	.	.
8c|	16cc 16e/	.	8cc'\L	.	.	.	.	.	.	.	.	.	.
.	16cc 16e/	.	.	.	.	.	.	.	.	.	.	.	.
8G\	16cc 16e/	.	8ee'\	.	8c\	-ter	8c\	-ter	8ee\	-ter	.	.	.
.	16cc 16e/	.	.	.	.	.	.	.	.	.	.	.	.
8c\J	16cc 16e/	.	8gg'\J	.	8c\	o-	8c\	O-	8ee\	o-	.	.	.
.	16cc 16e/JJ	.	.	.	.	.	.	.	.	.	.	.	.
!LO:LB:g=original	!	!	!LO:LB:g=original	!	!	!	!	!	!	!	!	!	!
=31	=31	=31	=31	=31	=31	=31	=31	=31	=31	=31	=31	=31	=31
8G\L	16cc 16e/LL	.	16ccc\LL	.	4c\	-mni-	4c\	-mni-	4ee\	-mni-	1g	1cc	1eee
.	16cc 16e/	.	16ccc\	.	.	.	.	.	.	.	.	.	.
8c|	16cc 16e/	.	16ccc\	.	.	.	.	.	.	.	.	.	.
.	16cc 16e/	.	16ccc\JJ	.	.	.	.	.	.	.	.	.	.
8G\	16cc 16e/	.	16gg\LL	.	4c\	-po-	4c\	-po-	4ee\	-po-	.	.	.
.	16cc 16e/	.	16gg\	.	.	.	.	.	.	.	.	.	.
8c\J	16cc 16e/	.	16gg\	.	.	.	.	.	.	.	.	.	.
.	16cc 16e/JJ	.	16gg\JJ	.	.	.	.	.	.	.	.	.	.
8G\L	16cc 16e/LL	.	16ee\LL	.	4c\	-tens	4c\	-tens,	2ee\	-tens	.	.	.
.	16cc 16e/	.	16ee\	.	.	.	.	.	.	.	.	.	.
8c|	16cc 16e/	.	16ee\	.	.	.	.	.	.	.	.	.	.
.	16cc 16e/	.	16ee\JJ	.	.	.	.	.	.	.	.	.	.
8G\	16cc 16e/	.	16cc\LL	.	4r	.	4r	.	.	.	.	.	.
.	16cc 16e/	.	16cc\	.	.	.	.	.	.	.	.	.	.
8c\J	16cc 16e/	.	16cc\	.	.	.	.	.	.	.	.	.	.
.	16cc 16e/JJ	.	16cc\JJ	.	.	.	.	.	.	.	.	.	.
!	!	!	!	!	!	!	!	!	!	!	!LO:LB:g=original	!	!
=32	=32	=32	=32	=32	=32	=32	=32	=32	=32	=32	=32	=32	=32
!	!LO:SIC:n=1:s=2bn:v	!	!	!	!	!	!	!	!	!	!	!	!
8G\L	16b- 16d/LL	.	16dd\LL	.	4Bn\	Do-	4Bn\	Do-	4dd\	Do-	1g	1bX	1ddd
.	16b- 16d/	.	16ee\	.	.	.	.	.	.	.	.	.	.
8Bn\	16b- 16d/	.	16ff\	.	.	.	.	.	.	.	.	.	.
.	16b- 16d/	.	16ee\JJ	.	.	.	.	.	.	.	.	.	.
8G\	16b- 16d/	.	4dd\	.	8B\	-mi-	8B\	-mi-	8dd\	-mi-	.	.	.
.	16b- 16d/	.	.	.	.	.	.	.	.	.	.	.	.
8Bn\J	16b- 16d/	.	.	.	8B\	-ne	8B\	-ne	8dd\	-ne	.	.	.
.	16b- 16d/JJ	.	.	.	.	.	.	.	.	.	.	.	.
!	!LO:SIC:n=1:s=2bn:v	!	!	!	!	!	!	!	!	!	!	!	!
8G\L	16b- 16d/LL	.	8r	.	4B\	Fi-	4B\	Fi-	4dd\	Fi-	.	.	.
.	16b- 16d/	.	.	.	.	.	.	.	.	.	.	.	.
8B\	16b- 16d/	.	8g'\L	.	.	.	.	.	.	.	.	.	.
.	16b- 16d/	.	.	.	.	.	.	.	.	.	.	.	.
!	!	!	!LO:SIC:s=8Bn:v	!	!	!	!	!	!	!	!	!	!
8G\	16b- 16d/	.	8b-'\	.	4B\	-li	4B\	-li	4dd\	-li	.	.	.
.	16b- 16d/	.	.	.	.	.	.	.	.	.	.	.	.
8B\J	16b- 16d/	.	8dd'\J	.	.	.	.	.	.	.	.	.	.
.	16b- 16d/JJ	.	.	.	.	.	.	.	.	.	.	.	.
=33	=33	=33	=33	=33	=33	=33	=33	=33	=33	=33	=33	=33	=33
!LO:SIC:s=2Bn:v	!LO:SIC:n=1:s=2bn:v	!	!	!	!LO:SIC:s=4Bn:v	!	!LO:SIC:s=4Bn:v	!	!	!	!	!	!
8G\L	16b- 16d/LL	.	16ff\LL	.	4B-\	U-	4B-\	U-	4dd\	U-	1g	1b-	1ddd
.	16b- 16d/	.	16ff\	.	.	.	.	.	.	.	.	.	.
8B-\	16b- 16d/	.	16ff\	.	.	.	.	.	.	.	.	.	.
.	16b- 16d/	.	16ff\JJ	.	.	.	.	.	.	.	.	.	.
!	!	!	!	!	!LO:SIC:s=4Bn:v	!	!LO:SIC:s=4Bn:v	!	!	!	!	!	!
8G\	16b- 16d/	.	16ddd\LL	.	4B-\	-ni-	4B-\	-ni-	4dd\	-ni-	.	.	.
.	16b- 16d/	.	16ddd\	.	.	.	.	.	.	.	.	.	.
8B-\J	16b- 16d/	.	16ddd\	.	.	.	.	.	.	.	.	.	.
.	16b- 16d/JJ	.	16ddd\JJ	.	.	.	.	.	.	.	.	.	.
!	!LO:TX:b:i:t=Verte Cit.	!	!	!	!	!	!LO:LB:g=original	!	!	!	!	!	!
!LO:SIC:s=2Bn:v	!LO:SIC:n=1:s=2bn:v	!	!	!	!LO:SIC:s=8Bn:v	!	!LO:SIC:s=8Bn:v	!	!	!	!	!	!
8G\L	16b- 16d/LL	.	16bbn\LL	.	8B-\	-ge-	8B-\	-ge-	8dd\	-ge	.	.	.
.	16b- 16d/	.	16bbn\	.	.	.	.	.	.	.	.	.	.
!	!	!	!	!	!LO:SIC:s=8Bn:v	!	!LO:SIC:s=8Bn:v	!	!LO:TX:b:t=P:problem=brak tekstu (uszkodzony papier)	!	!	!	!
8B-\	16b- 16d/	.	16bbn\	.	8B-\	-ni-	8B-\	-ni-	8dd\	.	.	.	.
.	16b- 16d/	.	16bbn\JJ	.	.	.	.	.	.	.	.	.	.
!	!	!	!	!	!LO:SIC:s=4Bn:v	!	!LO:SIC:s=4Bn:v	!	!	!	!	!	!
8G\	16b- 16d/	.	16gg\LL	.	4B-\	-te	4B-\	-te	4dd\	.	.	.	.
.	16b- 16d/	.	16gg\	.	.	.	.	.	.	.	.	.	.
8B-\J	16b- 16d/	.	16gg\	.	.	.	.	.	.	.	.	.	.
.	16b- 16d/JJ	.	16gg\JJ	.	.	.	.	.	.	.	.	.	.
*Xtremolo	*	*	*	*	*	*	*	*	*	*	*	*	*
!	!LO:PB:g=original	!	!	!	!	!	!	!	!LO:PB:g=original	!	!	!	!LO:LB:g=original
=34	=34	=34	=34	=34	=34	=34	=34	=34	=34	=34	=34	=34	=34
4c\	4ff\	.	4ee\	.	4c\	Je-	4c\	Je-	4ee\	Je-	1c	1c	4gg\
4C/	16aa\LL	.	16ccc\LL	.	4r	.	4r	.	4r	.	.	.	4r
!	!	!	!LO:SIC:s=16bbn:v	!	!	!	!	!	!	!	!	!	!
.	16gg\	.	16bb-\	.	.	.	.	.	.	.	.	.	.
.	16ff\	.	16aa\	.	.	.	.	.	.	.	.	.	.
.	16ee\JJ	.	16gg\JJ	.	.	.	.	.	.	.	.	.	.
!LO:SIC:s=8A:v	!	!	!	!	!	!	!	!	!	!	!	!	!
8G\L	8ff\L	.	8aa\L	.	4A\	-su	4A\	-su	4ff\	-su	.	.	4aa\
8F\J	8cc\	.	8ff\	.	.	.	.	.	.	.	.	.	.
4C/	8aa\	.	8ccc\	.	4r	.	4r	.	4r	.	.	.	4ccc\
.	8ff\J	.	8aa\J	.	.	.	.	.	.	.	.	.	.
=35	=35	=35	=35	=35	=35	=35	=35	=35	=35	=35	=35	=35	=35
4E\	16ee\LL	.	16gg\LL	.	4e\	Je-	4e\	Je-	4ee\	Chri-	2c/	1c	4gg\
.	16ee\	.	16gg\	.	.	.	.	.	.	.	.	.	.
.	16ee\	.	16gg\	.	.	.	.	.	.	.	.	.	.
.	16ee\JJ	.	16gg\JJ	.	.	.	.	.	.	.	.	.	.
4A\	16cc\LL	.	16ee\LL	.	4c\	-su	4c\	-su	4cc\	-ste	.	.	4eee\
.	16cc\	.	16ee\	.	.	.	.	.	.	.	.	.	.
.	16cc\	.	16ee\	.	.	.	.	.	.	.	.	.	.
.	16cc\JJ	.	16ee\JJ	.	.	.	.	.	.	.	.	.	.
*	*	*	*	*	*	*	*	*	*	*ij	*	*	*
4F\	16dd\LL	.	16ff\LL	.	4d\	Chri-	4d\	Chri-	4dd\	Chri-	2r	.	4fff\
.	16dd\	.	16ff\	.	.	.	.	.	.	.	.	.	.
.	16dd\	.	16ff\	.	.	.	.	.	.	.	.	.	.
.	16dd\JJ	.	16ff\JJ	.	.	.	.	.	.	.	.	.	.
4G\	16bn\LL	.	16dd\LL	.	4G\	-ste	4G/	-ste	4bn\	-ste	.	.	4ddd\
.	16bn\	.	16dd\	.	.	.	.	.	.	.	.	.	.
.	16bn\	.	16dd\	.	.	.	.	.	.	.	.	.	.
.	16bn\JJ	.	16dd\JJ	.	.	.	.	.	.	.	.	.	.
*	*	*	*	*	*	*	*	*	*	*Xij	*	*	*
!	!	!	!	!	!	!	!	!	!	!	!	!LO:LB:g=original	!
=36	=36	=36	=36	=36	=36	=36	=36	=36	=36	=36	=36	=36	=36
4C\	4cc\	.	4ee\	.	4E\	Qui	4E/	Qui	4ee\	qui	1c	1c	4gg\
4E\	16aa\LL	.	16ccc\LL	.	4G\	tol-	4G/	tol-	4ee\	tol-	.	.	4r
.	16gg\	.	16bbn\	.	.	.	.	.	.	.	.	.	.
.	16ff\	.	16aa\	.	.	.	.	.	.	.	.	.	.
.	16ee\JJ	.	16gg\JJ	.	.	.	.	.	.	.	.	.	.
!	!	!	!	!	!LO:LB:g=original	!	!	!	!	!	!	!	!
4F\	8ff\L	.	8aa\L	.	4F\	-lis	4F/	-lis	4ff\	-lis	.	.	4aa\
.	8cc\	.	8ff\	.	.	.	.	.	.	.	.	.	.
4C\	8aa\	.	8ccc\	.	4A\	pec-	4A/	pec-	4ff\	pec-	.	.	4ccc\
.	8ff\J	.	8aa\J	.	.	.	.	.	.	.	.	.	.
=37	=37	=37	=37	=37	=37	=37	=37	=37	=37	=37	=37	=37	=37
4E\	16ee\LL	.	16gg\LL	.	4G\	-ca-	4G/	-ca-	4ee\	-ca-	2c/	1c	4gg\
.	16ee\	.	16gg\	.	.	.	.	.	.	.	.	.	.
.	16ee\	.	16gg\	.	.	.	.	.	.	.	.	.	.
.	16ee\JJ	.	16gg\JJ	.	.	.	.	.	.	.	.	.	.
4A\	16cc\LL	.	16ee\LL	.	4c\	-ta	4c\	-ta	4cc\	-ta	.	.	4ccc\
.	16cc\	.	16ee\	.	.	.	.	.	.	.	.	.	.
.	16cc\	.	16ee\	.	.	.	.	.	.	.	.	.	.
.	16cc\JJ	.	16ee\JJ	.	.	.	.	.	.	.	.	.	.
4F\	16dd\LL	.	16ff\LL	.	4d\	Mun-	4d\	mun-	4dd\	mun-	2r	.	4fff\
.	16dd\	.	16ff\	.	.	.	.	.	.	.	.	.	.
.	16dd\	.	16ff\	.	.	.	.	.	.	.	.	.	.
.	16dd\JJ	.	16ff\JJ	.	.	.	.	.	.	.	.	.	.
4G\	16bn\LL	.	16dd\LL	.	4G\	-di	4G/	-di,	4bn\	-di	.	.	4ddd\
.	16bn\	.	16dd\	.	.	.	.	.	.	.	.	.	.
.	16bn\	.	16dd\	.	.	.	.	.	.	.	.	.	.
.	16bn\JJ	.	16dd\JJ	.	.	.	.	.	.	.	.	.	.
=38	=38	=38	=38	=38	=38	=38	=38	=38	=38	=38	=38	=38	=38
4E\	16cc\LL	.	16ee\LL	.	4E\	Mi-	4E/	mi-	4cc\	Mi-	1c	1c	4gg\
.	16cc\	.	16ee\	.	.	.	.	.	.	.	.	.	.
.	16cc\	.	16ee\	.	.	.	.	.	.	.	.	.	.
.	16cc\JJ	.	16ee\JJ	.	.	.	.	.	.	.	.	.	.
!LO:SIC:s=4G:v	!LO:SIC:s=4gg:v	!	!	!	!	!	!	!	!	!	!	!	!
4A\	16aa\LL	.	16ccc\LL	.	4C\	-ſe-	4C/	-se-	4gg\	-ſe-	.	.	4ccc\
.	16aa\	.	16ccc\	.	.	.	.	.	.	.	.	.	.
.	16aa\	.	16ccc\	.	.	.	.	.	.	.	.	.	.
.	16aa\JJ	.	16ccc\JJ	.	.	.	.	.	.	.	.	.	.
4F\	16ff\LL	.	16aa\LL	.	4F\	-re-	4F/	-re-	4aa\	-re-	.	.	4aa\
.	16ff\	.	16aa\	.	.	.	.	.	.	.	.	.	.
.	16ff\	.	16aa\	.	.	.	.	.	.	.	.	.	.
.	16ff\JJ	.	16aa\JJ	.	.	.	.	.	.	.	.	.	.
4D\	16dd\LL	.	16ff\LL	.	4A\	-re	4A/	-re	4ff\	-re	.	.	4ff\
.	16dd\	.	16ff\	.	.	.	.	.	.	.	.	.	.
.	16dd\	.	16ff\	.	.	.	.	.	.	.	.	.	.
.	16dd\JJ	.	16ff\JJ	.	.	.	.	.	.	.	.	.	.
!LO:LB:g=original	!	!	!LO:LB:g=original	!	!	!	!	!	!	!	!	!	!
=39	=39	=39	=39	=39	=39	=39	=39	=39	=39	=39	=39	=39	=39
!LO:TX:a:t=P:problem=w źródle 3 takty pokreślone, niepotrzebna repetycja	!	!	!LO:TX:a:t=problem&colon;2\right&colon;global	!	!	!	!	!	!	!	!	!	!
*	*	*	*2\right	*	*	*	*	*	*	*	*	*	*
8G\L	16cc\LL	.	16ee\LL	.	2G\	no-	2G/	no-	2ee\	no-	2c/	1c	2eee\
.	16cc\	.	16ee\	.	.	.	.	.	.	.	.	.	.
8G\	16cc\	.	16ee\	.	.	.	.	.	.	.	.	.	.
.	16cc\	.	16ee\	.	.	.	.	.	.	.	.	.	.
8G\	16cc\	.	16ee\	.	.	.	.	.	.	.	.	.	.
.	16cc\	.	16ee\	.	.	.	.	.	.	.	.	.	.
8G\J	16cc\	.	16ee\	.	.	.	.	.	.	.	.	.	.
.	16cc\JJ	.	16ee\JJ	.	.	.	.	.	.	.	.	.	.
!	!	!	!	!	!	!	!	!	!LO:TX:a:t=P:problem=2 takty wykreślone	!	!	!	!
2GG/	16bn\LL	.	16dd\LL	.	2GG/	-bis	2GG/	-bis,	2dd\	-bis	2r	.	2ddd\
.	16bn\	.	16dd\	.	.	.	.	.	.	.	.	.	.
.	16bn\	.	16dd\	.	.	.	.	.	.	.	.	.	.
.	16bn\	.	16dd\	.	.	.	.	.	.	.	.	.	.
.	16bn\	.	16dd\	.	.	.	.	.	.	.	.	.	.
.	16bn\	.	16dd\	.	.	.	.	.	.	.	.	.	.
.	16bn\	.	16dd\	.	.	.	.	.	.	.	.	.	.
.	16bn\JJ	.	16dd\JJ	.	.	.	.	.	.	.	.	.	.
!	!	!	!	!	!	!	!	!	!LO:LB:g=original	!	!	!	!
=40	=40	=40	=40	=40	=40	=40	=40	=40	=40	=40	=40	=40	=40
*tremolo	*	*	*	*	*	*	*	*	*	*	*	*	*
!	!	!	!LO:TX:a:t=P:problem=takty 40-41 zapisane repetycją	!	!	!	!	!	!	!	!	!	!LO:TX:a:t=P:problem=piony harmoniczne w tym takcie się nie zgadzają
16C/LL	16cc\LL	.	16ee\yyLL	.	4c\	Mi-	4c\	mi-	4cc\	Mi-	2c/	1c	4gg\
16C/	16cc\	.	16ee\yy	.	.	.	.	.	.	.	.	.	.
16C/	16cc\	.	16ee\yy	.	.	.	.	.	.	.	.	.	.
16C/	16cc\JJ	.	16ee\yyJJ	.	.	.	.	.	.	.	.	.	.
!	!LO:SIC:s=4gg:v	!	!	!	!	!	!	!	!	!	!	!	!
16C/	16aa\LL	.	16ccc\yyLL	.	4E\	-ſe-	4E/	-se-	4gg\	-se-	.	.	4eee\
16C/	16aa\	.	16ccc\yy	.	.	.	.	.	.	.	.	.	.
16C/	16aa\	.	16ccc\yy	.	.	.	.	.	.	.	.	.	.
16C/JJ	16aa\JJ	.	16ccc\yyJJ	.	.	.	.	.	.	.	.	.	.
16C/LL	16ff\LL	.	16aa\yyLL	.	4A\	-re-	4A/	-re-	4aa\	-re-	2c/	.	4ccc\
16C/	16ff\	.	16aa\yy	.	.	.	.	.	.	.	.	.	.
16C/	16ff\	.	16aa\yy	.	.	.	.	.	.	.	.	.	.
16C/	16ff\JJ	.	16aa\yyJJ	.	.	.	.	.	.	.	.	.	.
!	!	!	!	!	!	!	!LO:LB:g=original	!	!	!	!	!	!
16C/	16dd\LL	.	16ff\yyLL	.	4F\	-re	4F/	-re	4ff\	-re	.	.	4gg\
16C/	16dd\	.	16ff\yy	.	.	.	.	.	.	.	.	.	.
16C/	16dd\	.	16ff\yy	.	.	.	.	.	.	.	.	.	.
16C/JJ	16dd\JJ	.	16ff\yyJJ	.	.	.	.	.	.	.	.	.	.
=41	=41	=41	=41	=41	=41	=41	=41	=41	=41	=41	=41	=41	=41
16G\LL	16cc\LL	.	16ee\yyLL	.	2G\	no-	2G/	no-	2ee\	no-	2c/	1c	2eee\
16G\	16cc\	.	16ee\yy	.	.	.	.	.	.	.	.	.	.
16G\	16cc\	.	16ee\yy	.	.	.	.	.	.	.	.	.	.
16G\	16cc\	.	16ee\yy	.	.	.	.	.	.	.	.	.	.
16G\	16cc\	.	16ee\yy	.	.	.	.	.	.	.	.	.	.
16G\	16cc\	.	16ee\yy	.	.	.	.	.	.	.	.	.	.
16G\	16cc\	.	16ee\yy	.	.	.	.	.	.	.	.	.	.
16G\JJ	16cc\JJ	.	16ee\yyJJ	.	.	.	.	.	.	.	.	.	.
16GG/LL	16bn\LL	.	16dd\yyLL	.	2GG/	.	2GG/	.	2dd\	.	2r	.	2ddd\
16GG/	16bn\	.	16dd\yy	.	.	.	.	.	.	.	.	.	.
16GG/	16bn\	.	16dd\yy	.	.	.	.	.	.	.	.	.	.
16GG/	16bn\	.	16dd\yy	.	.	.	.	.	.	.	.	.	.
16GG/	16bn\	.	16dd\yy	.	.	.	.	.	.	.	.	.	.
16GG/	16bn\	.	16dd\yy	.	.	.	.	.	.	.	.	.	.
16GG/	16bn\	.	16dd\yy	.	.	.	.	.	.	.	.	.	.
16GG/JJ	16bn\JJ	.	16dd\yyJJ	.	.	.	.	.	.	.	.	.	.
*	*Xtremolo	*	*Xtremolo	*	*	*	*	*	*	*	*	*	*
=42	=42	=42	=42	=42	=42	=42	=42	=42	=42	=42	=42	=42	=42
4C/	4cc 4e 4G/	.	4cc 4e/	.	4C/	-bis	4C/	-bis,	4cc\	-bis	4c/	4c/	4ccc\
4C/	4cc 4e 4G/	.	4cc 4e/	.	4r	.	4r	.	4r	.	4c/	4c/	4eee\
4C/	4cc 4e 4G/	.	4cc 4e/	.	2r	.	2r	.	2r	.	4c/	4c/	4eee\
4r	4r	.	4r	.	.	.	.	.	.	.	4r	4r	4r
!	!LO:LB:g=original	!	!	!	!	!	!	!	!	!	!	!	!
=43	=43	=43	=43	=43	=43	=43	=43	=43	=43	=43	=43	=43	=43
4F\	4a/	.	4ff 4a\	.	4f\	Quo-	4f\	Quo-	4ff\	Quo-	4A/	4f\	4fff\
4C\	16cc/LL	.	16aa\LL	.	4c\	-ni-	4c\	-ni-	4ee\	-ni-	4c/	4g\	4eee\
.	16b-/	.	16gg\	.	.	.	.	.	.	.	.	.	.
.	16a/	.	16ff\	.	.	.	.	.	.	.	.	.	.
.	16g/JJ	.	16ee\JJ	.	.	.	.	.	.	.	.	.	.
!	!	!	!LO:TX:a:t=P:problem=mixed beam	!	!	!	!	!	!	!	!	!	!
4FF/	8a/L	.	8ff\L	.	4F\	-am	4F/	-am	4ff\	-am	4A/	4f\	4fff\
.	8A/	.	8f/	.	.	.	.	.	.	.	.	.	.
4r	8c/	.	8a/	.	4r	.	4r	.	4r	.	4r	4r	4r
.	8f/J	.	8cc/J	.	.	.	.	.	.	.	.	.	.
!	!	!	!	!	!	!	!	!	!	!	!	!	!LO:LB:g=original
=44	=44	=44	=44	=44	=44	=44	=44	=44	=44	=44	=44	=44	=44
*	*	*	*	*	*	*	*	*	*	*ij	*	*	*
4F\	4ff\	.	4aa\	.	4f\	Quo-	4f\	Quo-	4aa\	Quo-	4f\	4a\	4fff\
4C\	16aa\LL	.	16ccc\LL	.	4c\	-ni-	4c\	-ni-	4gg\	-ni-	4g\	4b-\	4eee\
.	16gg\	.	16bb-\	.	.	.	.	.	.	.	.	.	.
.	16ff\	.	16aa\	.	.	.	.	.	.	.	.	.	.
.	16ee\JJ	.	16gg\JJ	.	.	.	.	.	.	.	.	.	.
!	!LO:TX:a:t=P:problem=mixed beam	!	!LO:TX:a:t=P:problem=mixed beam	!	!	!	!	!	!	!	!	!	!
*	*	*	*	*	*	*	*	*	*	*Xij	*	*	*
4FF/	8ff\L	.	8aa\L	.	4F\	-am	4F/	-am	4aa\	-am	4f\	4a\	4fff\
.	8f/	.	8a/	.	.	.	.	.	.	.	.	.	.
4r	8a/	.	8cc/	.	4r	.	4r	.	4r	.	4r	4r	4r
.	8cc/J	.	8ff/J	.	.	.	.	.	.	.	.	.	.
!	!	!	!	!	!LO:LB:g=original	!	!	!	!	!	!LO:LB:g=original	!	!
=45	=45	=45	=45	=45	=45	=45	=45	=45	=45	=45	=45	=45	=45
!	!	!	!	!	!	!	!	!	!	!	!	!	!LO:TX:a:t=P:problem=piony harmoniczne w tym takcie się nie zgadzają
4F\	4aa\	.	4ccc\	.	2F\	Tu	2F/	Tu	2aa\	Tu	4a\	4cc\	4ccc\
!	!LO:SIC:s=8ccc:v	!	!	!	!	!	!	!	!	!	!	!	!
4A\	8bb-\L	.	8ddd\L	.	.	.	.	.	.	.	4f\	4a\	4ddd\
.	8aa\J	.	8ccc\J	.	.	.	.	.	.	.	.	.	.
!	!	!	!	!	!	!	!	!	!	!	!	!LO:SIC:s=4gg:v	!
4G\	4aa\	.	4ccc\	.	4A\	So-	4A/	so-	4aa\	so-	4a\	4dd\	4ccc\
4C/	8ff\L	.	8aa\L	.	4F\	-lus	4F/	-lus	4ff\	-lus	4f\	4a\	4ccc\
.	8cc\J	.	8ff\J	.	.	.	.	.	.	.	.	.	.
=46	=46	=46	=46	=46	=46	=46	=46	=46	=46	=46	=46	=46	=46
!	!	!	!	!	!	!	!LO:TX:b:t=g	!	!	!	!	!	!LO:TX:a:t=P:problem=piony harmoniczne w tym takcie się nie zgadzają
8E\L	8gg\L	.	8bb-\L	.	(4G\	San-	4G/	san-	4gg\	San-	8g\L	8b-\L	8bb-\L
8F\	8ff\	.	8aa\	.	.	.	.	.	.	.	8f\	8a\	8aa\
8G\	8gg\	.	8bb-\	.	4F\	.	4F/	.	4ff\	.	8g\	8b-\	8bb-\
8F\J	8ff\J	.	8aa\J	.	.	.	.	.	.	.	8f\J	8a\J	8aa\J
4C/	4ee\	.	4gg\	.	4C\)	-ctus	4C/	-ctus,	4ee\	-ctus	4c/	4g\	4gg\
!	!	!	!	!	!	!	!	!	!	!	!	!	!LO:TX:a:i:t=Solo
4r	4r	.	4r	.	4r	.	4r	.	4r	.	4r	4r	4r
=47	=47	=47	=47	=47	=47	=47	=47	=47	=47	=47	=47	=47	=47
!LO:TX:a:t=8.	!	!LO:DY:b:rj	!	!LO:DY:b:rj:t=p.	!	!	!	!	!	!	!	!	!
*	*	*	*	*	*	*	*	*	*	*	*2\right	*2\right	*
00r	4ff\	p	4ff\	p	2A\	tu	2A/	Tu	2cc\	Tu	2a\	2cc\	2ccc\
.	4f/	.	4f/	.	.	.	.	.	.	.	.	.	.
.	4a/	.	4a/	.	4A\	So-	4A/	so-	4cc\	so-	4a\	4cc\	4ccc\
.	4cc/	.	4cc/	.	4G\	-lus	4G/	-lus	4b-\	-lus	4g\	4b-\	4bb-\
=48	=48	=48	=48	=48	=48	=48	=48	=48	=48	=48	=48	=48	=48
.	4ff\	.	4ff\	.	8.F\	Do-	8.F/	Do-	8a\	Do-	8f\L	8a\L	8aa\L
.	.	.	.	.	.	.	.	.	8b-\	-mi-	8g\J	8b-\J	8bb-\J
.	.	.	.	.	16G\	-mi-	16G/	-mi-	.	.	.	.	.
.	4cc\	.	4cc\	.	4A\	-nus	4A/	-nus,	4cc\	-nus	4a\	4cc\	4ccc\
.	4a\	.	4a\	.	2r	.	2r	.	2r	.	2r	2r	8ccc\L
.	.	.	.	.	.	.	.	.	.	.	.	.	8fff\
.	4f\	.	4f\	.	.	.	.	.	.	.	.	.	8ccc\
.	.	.	.	.	.	.	.	.	.	.	.	.	8aa\J
!	!	!	!	!	!	!	!LO:LB:g=original	!	!LO:LB:g=original	!	!	!LO:LB:g=original	!
=49	=49	=49	=49	=49	=49	=49	=49	=49	=49	=49	=49	=49	=49
.	4cc\	.	4cc\	.	2G\	tu	2G/	Tu	2b-\	Tu	2g\	2b-\	2bb-\
.	4c/	.	4c/	.	.	.	.	.	.	.	.	.	.
.	4e/	.	4e/	.	4G\	So-	4G/	so-	4b-\	so-	4g\	4b-\	4bb-\
.	4g/	.	4g/	.	4F\	-lus	4F/	-lus	8a\	-lus	4f\	4a\	4aa\
.	.	.	.	.	.	.	.	.	8a\	Al-	.	.	.
!	!	!	!LO:LB:g=original	!	!	!	!	!	!	!	!	!	!
=50	=50	=50	=50	=50	=50	=50	=50	=50	=50	=50	=50	=50	=50
.	4cc\	.	4cc/	.	8.E\	Do-	8.E/	Do-	8g\	-tiſ-	8c\L	8g\L	8gg\L
.	.	.	.	.	.	.	.	.	8a\	-si-	8f\J	8a\J	8aa\J
.	.	.	.	.	16F\	-mi-	16F/	-mi-	.	.	.	.	.
.	4g\	.	4g/	.	4G\	-nus	4G/	-nus	4b-\	-mus	4g\	4b-\	4bb-\
.	4e/	.	4e/	.	4r	.	4r	.	4r	.	2r	2r	8bb-\L
.	.	.	.	.	.	.	.	.	.	.	.	.	8aa\
.	4c/	.	4c/	.	8.F\	Je-	8.F/	Je-	8a\	Je-	.	.	8aa\
.	.	.	.	.	.	.	.	.	8a\	-su	.	.	8gg\J
.	.	.	.	.	16F\	-su	16F/	-su	.	.	.	.	.
=51	=51	=51	=51	=51	=51	=51	=51	=51	=51	=51	=51	=51	=51
!	!	!	!	!	!	!	!	!	!	!	!	!	!LO:TX:a:t=P:problem=piony harmoniczne w tym takcie się nie zgadzają
*	*	*	*	*	*	*ij	*	*ij	*	*ij	*	*	*
00r	4f/	.	4f/	.	4F\	Je-	4F/	Je-	4a\	Je-	4f\	4a\	4aa\
*	*	*	*	*	*	*	*	*	*	*Xij	*	*	*
.	4ff\	.	4ff\	.	4C\	-su	4C/	-su	4g\	-su	4d\	4g\	4gg\
.	4cc\	.	4cc\	.	4G\	Je-	4G/	Je-	4b-\	Je-	4g\	4b-\	4bb-\
.	4c/	.	4c/	.	4G\	-su	4G/	-su	4b-\	-su	4g\	4b-\	8bb-\L
*	*	*	*	*	*	*Xij	*	*Xij	*	*	*	*	*
.	.	.	.	.	.	.	.	.	.	.	.	.	8bb-\J
!	!	!	!	!	!	!	!	!	!	!	!	!	!LO:LB:g=original
=52	=52	=52	=52	=52	=52	=52	=52	=52	=52	=52	=52	=52	=52
!	!	!	!	!	!	!	!	!	!	!	!	!	!LO:TX:a:t=P:problem=piony harmoniczne w tym takcie się nie zgadzają
.	4f/	.	4f/	.	4G\	Chri-	4G/	Chri-	4b-\	Chri-	4g\	4b-\	8bb-\L
.	.	.	.	.	.	.	.	.	.	.	.	.	8aa\J
.	4ff\	.	4a/	.	4F\	-ste	4F/	-ste	4a\	-ste	4f\	4a\	4aa\
.	4cc\	.	4cc/	.	8A\L	Je-	8A/L	Je-	8cc\L	Je-	4a\	4cc\	8ccc\L
.	.	.	.	.	8F\J	.	8F/J	.	8a\J	.	.	.	8aa\
.	4c/	.	4c/	.	8A\L	-su	8A/L	-su	8cc\L	-su	4a\	4cc\	8ccc\
.	.	.	.	.	8F\J	.	8F/J	.	8a\J	.	.	.	8aa\J
!	!LO:LB:g=original	!	!	!	!LO:LB:g=original	!	!	!	!	!	!	!	!
=53	=53	=53	=53	=53	=53	=53	=53	=53	=53	=53	=53	=53	=53
!	!	!	!	!	!	!	!	!	!	!	!	!	!LO:TX:a:t=P:problem=piony harmoniczne w tym takcie się nie zgadzają
*	*	*	*	*	*	*ij	*	*ij	*	*	*	*	*
.	4f/	.	4f/	.	4B-\	Je-	4B-\	Je-	(4dd\	Je-	4a\	4cc\	4ddd\
.	4a/	.	4g/	.	4G\	-su	4G/	-su	4b-\)	.	8b-\L	8dd\L	4bb-\
.	.	.	.	.	.	.	.	.	.	.	8g\J	8cc\J	.
!	!	!	!	!	!	!	!	!	!	!	!LO:LB:g=original	!	!
.	4b-/	.	4a/	.	4F\	Je-	4F/	Je-	(4a\	-su	4f\	4a\	4aa\
.	4cc/	.	4f/	.	4E\	-su	4E/	-su	4g\)	.	4c\	4g\	4gg\
*	*	*	*	*	*	*Xij	*	*Xij	*	*	*	*	*
=54	=54	=54	=54	=54	=54	=54	=54	=54	=54	=54	=54	=54	=54
.	4f/	.	4cc\	.	4F\	Chri-	4F/	Chri-	8a\L	Chri-	4f\	4a\	8aa\L
.	.	.	.	.	.	.	.	.	8dd\	.	.	.	8bb-\
.	4c/	.	4c/	.	4C\	.	4C/	.	8cc\	.	8g\L	8b-\L	8ccc\
.	.	.	.	.	.	.	.	.	8b-\J	.	8f\J	8g\J	8bb-\J
.	4f/	.	4f/	.	4F\	-ste	4F/	-ste	4a\	-ste	4c/	4f\	4aa\
.	4r	.	4r	.	4r	.	4r	.	4r	.	4r	4r	4r
=55	=55	=55	=55	=55	=55	=55	=55	=55	=55	=55	=55	=55	=55
*	*tremolo	*	*	*	*	*	*	*	*	*	*	*	*
!	!	!LO:DY:b:t=for	!	!LO:DY:b:t=for	!	!	!	!	!	!	!	!	!
8C\L	16ee 16cc\LL	f	16gg\LL	f	2c\	Cum	2c\	Cum	2ee\	Cum	1c	1g	1eee
.	16ee 16cc\	.	16aa\	.	.	.	.	.	.	.	.	.	.
8E\	16ee 16cc\	.	16bb-\	.	.	.	.	.	.	.	.	.	.
.	16ee 16cc\	.	16aa\JJ	.	.	.	.	.	.	.	.	.	.
8C\	16ee 16cc\	.	4gg\	.	.	.	.	.	.	.	.	.	.
.	16ee 16cc\	.	.	.	.	.	.	.	.	.	.	.	.
8E\J	16ee 16cc\	.	.	.	.	.	.	.	.	.	.	.	.
.	16ee 16cc\JJ	.	.	.	.	.	.	.	.	.	.	.	.
*tremolo	*	*	*	*	*	*	*	*	*	*	*	*	*
8C\L	16ee 16cc\LL	.	8r	.	4c\	San-	4c\	San-	4ee\	San-	.	.	.
.	16ee 16cc\	.	.	.	.	.	.	.	.	.	.	.	.
8E\	16ee 16cc\	.	8cc'\L	.	.	.	.	.	.	.	.	.	.
.	16ee 16cc\	.	.	.	.	.	.	.	.	.	.	.	.
8C\	16ee 16cc\	.	8ee'\	.	4c\	-cto	4c\	-cto	4ee\	-cto	.	.	.
.	16ee 16cc\	.	.	.	.	.	.	.	.	.	.	.	.
8E\J	16ee 16cc\	.	8gg'\J	.	.	.	.	.	.	.	.	.	.
.	16ee 16cc\JJ	.	.	.	.	.	.	.	.	.	.	.	.
=56	=56	=56	=56	=56	=56	=56	=56	=56	=56	=56	=56	=56	=56
*	*	*	*tremolo	*	*	*	*	*	*	*	*	*	*
8C\L	16ee 16cc\LL	.	16bb-\LL	.	4.c\	Spi-	4.c\	Spi-	4.ee\	Spi-	1c	1g	1eee
.	16ee 16cc\	.	16bb-\	.	.	.	.	.	.	.	.	.	.
8E\	16ee 16cc\	.	16bb-\	.	.	.	.	.	.	.	.	.	.
.	16ee 16cc\	.	16bb-\JJ	.	.	.	.	.	.	.	.	.	.
8C\	16ee 16cc\	.	16gg\LL	.	.	.	.	.	.	.	.	.	.
.	16ee 16cc\	.	16gg\	.	.	.	.	.	.	.	.	.	.
8E\J	16ee 16cc\	.	16gg\	.	8c\	-ri-	8c\	-ri-	8ee\	-ri-	.	.	.
.	16ee 16cc\JJ	.	16gg\JJ	.	.	.	.	.	.	.	.	.	.
!	!	!	!	!	!	!	!	!	!LO:LB:g=original	!	!	!	!
8C\L	16ee 16cc\LL	.	16ee\LL	.	2c\	-tu	2c\	-tu	2ee\	-tu	.	.	.
.	16ee 16cc\	.	16ee\	.	.	.	.	.	.	.	.	.	.
8E\	16ee 16cc\	.	16ee\	.	.	.	.	.	.	.	.	.	.
.	16ee 16cc\	.	16ee\JJ	.	.	.	.	.	.	.	.	.	.
8C\	16ee 16cc\	.	16cc\LL	.	.	.	.	.	.	.	.	.	.
.	16ee 16cc\	.	16cc\	.	.	.	.	.	.	.	.	.	.
8E\J	16ee 16cc\	.	16cc\	.	.	.	.	.	.	.	.	.	.
.	16ee 16cc\JJ	.	16cc\JJ	.	.	.	.	.	.	.	.	.	.
!LO:LB:g=original	!	!	!	!	!	!	!LO:PB:g=original	!	!	!	!	!	!
=57	=57	=57	=57	=57	=57	=57	=57	=57	=57	=57	=57	=57	=57
8C\L	16ff 16cc\LL	.	16aa\LL	.	2c\	in	2c\	in	2ff\	In	1f	1a	1fff
.	16ff 16cc\	.	16bb-\	.	.	.	.	.	.	.	.	.	.
8F\	16ff 16cc\	.	16ccc\	.	.	.	.	.	.	.	.	.	.
.	16ff 16cc\	.	16bb-\JJ	.	.	.	.	.	.	.	.	.	.
8C\	16ff 16cc\	.	4aa\	.	.	.	.	.	.	.	.	.	.
.	16ff 16cc\	.	.	.	.	.	.	.	.	.	.	.	.
8F\J	16ff 16cc\	.	.	.	.	.	.	.	.	.	.	.	.
.	16ff 16cc\JJ	.	.	.	.	.	.	.	.	.	.	.	.
8C\L	16ff 16cc\LL	.	8r	.	4c\	Glo-	4c\	glo-	4ff\	glo-	.	.	.
.	16ff 16cc\	.	.	.	.	.	.	.	.	.	.	.	.
8F\	16ff 16cc\	.	8f/L	.	.	.	.	.	.	.	.	.	.
.	16ff 16cc\	.	.	.	.	.	.	.	.	.	.	.	.
8C\	16ff 16cc\	.	8a/	.	8c\	-ri-	8c\	-ri-	8.ff\	-ri-	.	.	.
.	16ff 16cc\	.	.	.	.	.	.	.	.	.	.	.	.
8F\J	16ff 16cc\	.	8cc/J	.	8c\	-a	8c\	-a	.	.	.	.	.
.	16ff 16cc\JJ	.	.	.	.	.	.	.	16ff\	-a	.	.	.
=58	=58	=58	=58	=58	=58	=58	=58	=58	=58	=58	=58	=58	=58
8C\L	16ff 16cc\LL	.	16ff\LL	.	2c\	De-	2c\	De-	2ff\	De-	1f	1a	1fff
.	16ff 16cc\	.	16ff\	.	.	.	.	.	.	.	.	.	.
8F\	16ff 16cc\	.	16ff\	.	.	.	.	.	.	.	.	.	.
.	16ff 16cc\	.	16ff\JJ	.	.	.	.	.	.	.	.	.	.
8C\	16ff 16cc\	.	16cc\LL	.	.	.	.	.	.	.	.	.	.
.	16ff 16cc\	.	16cc\	.	.	.	.	.	.	.	.	.	.
8F\J	16ff 16cc\	.	16cc\	.	.	.	.	.	.	.	.	.	.
.	16ff 16cc\JJ	.	16cc\JJ	.	.	.	.	.	.	.	.	.	.
8C\L	16ff 16cc\LL	.	16a/LL	.	2c\	-i	2c\	-i	2ff\	-i	.	.	.
.	16ff 16cc\	.	16a/	.	.	.	.	.	.	.	.	.	.
8F\	16ff 16cc\	.	16a/	.	.	.	.	.	.	.	.	.	.
.	16ff 16cc\	.	16a/JJ	.	.	.	.	.	.	.	.	.	.
8C\	16ff 16cc\	.	16f/LL	.	.	.	.	.	.	.	.	.	.
.	16ff 16cc\	.	16f/	.	.	.	.	.	.	.	.	.	.
8F\J	16ff 16cc\	.	16f/	.	.	.	.	.	.	.	.	.	.
.	16ff 16cc\JJ	.	16f/JJ	.	.	.	.	.	.	.	.	.	.
=59	=59	=59	=59	=59	=59	=59	=59	=59	=59	=59	=59	=59	=59
8C\L	16ee 16cc\LL	.	16gg\LL	.	2B-\	Pa-	2B-\	Pa-	2ee\	Pa-	1c	1g	1eee
.	16ee 16cc\	.	16aa\	.	.	.	.	.	.	.	.	.	.
8E\	16ee 16cc\	.	16bb-\	.	.	.	.	.	.	.	.	.	.
.	16ee 16cc\	.	16aa\JJ	.	.	.	.	.	.	.	.	.	.
8C\	16ee 16cc\	.	4gg\	.	.	.	.	.	.	.	.	.	.
.	16ee 16cc\	.	.	.	.	.	.	.	.	.	.	.	.
8E\J	16ee 16cc\	.	.	.	.	.	.	.	.	.	.	.	.
.	16ee 16cc\JJ	.	.	.	.	.	.	.	.	.	.	.	.
!	!	!	!LO:LB:g=original	!	!	!	!	!	!	!	!	!	!
8C\L	16ee 16cc\LL	.	8r	.	2B-\	-tris	2B-\	-tris	2ee\	-tris	.	.	.
.	16ee 16cc\	.	.	.	.	.	.	.	.	.	.	.	.
8E\	16ee 16cc\	.	8cc\L	.	.	.	.	.	.	.	.	.	.
.	16ee 16cc\	.	.	.	.	.	.	.	.	.	.	.	.
8C\	16ee 16cc\	.	8ee\	.	.	.	.	.	.	.	.	.	.
.	16ee 16cc\	.	.	.	.	.	.	.	.	.	.	.	.
8E\J	16ee 16cc\	.	8gg\J	.	.	.	.	.	.	.	.	.	.
.	16ee 16cc\JJ	.	.	.	.	.	.	.	.	.	.	.	.
=60	=60	=60	=60	=60	=60	=60	=60	=60	=60	=60	=60	=60	=60
!	!LO:TX:a:t=P:problem=takt zapisany repetycją	!	!	!	!	!	!	!	!	!	!	!	!
8C\L	16eeyy 16cc\yyLL	.	16bb-\LL	.	2B-\	A-	2B-\	a-	2ee\	A-	1c	1g	1eee
.	16eeyy 16cc\yy	.	16bb-\	.	.	.	.	.	.	.	.	.	.
8E\	16eeyy 16cc\yy	.	16bb-\	.	.	.	.	.	.	.	.	.	.
.	16eeyy 16cc\yy	.	16bb-\JJ	.	.	.	.	.	.	.	.	.	.
8C\	16eeyy 16cc\yy	.	16gg\LL	.	.	.	.	.	.	.	.	.	.
.	16eeyy 16cc\yy	.	16gg\	.	.	.	.	.	.	.	.	.	.
8E\J	16eeyy 16cc\yy	.	16gg\	.	.	.	.	.	.	.	.	.	.
.	16eeyy 16cc\yyJJ	.	16gg\JJ	.	.	.	.	.	.	.	.	.	.
8C\L	16eeyy 16cc\yyLL	.	16ee\LL	.	2B-\	-men	2B-\	-men	2ee\	-men	.	.	.
.	16eeyy 16cc\yy	.	16ee\	.	.	.	.	.	.	.	.	.	.
8E\	16eeyy 16cc\yy	.	16ee\	.	.	.	.	.	.	.	.	.	.
.	16eeyy 16cc\yy	.	16ee\JJ	.	.	.	.	.	.	.	.	.	.
8C\	16eeyy 16cc\yy	.	16cc\LL	.	.	.	.	.	.	.	.	.	.
.	16eeyy 16cc\yy	.	16cc\	.	.	.	.	.	.	.	.	.	.
8E\J	16eeyy 16cc\yy	.	16cc\	.	.	.	.	.	.	.	.	.	.
.	16eeyy 16cc\yyJJ	.	16cc\JJ	.	.	.	.	.	.	.	.	.	.
*Xtremolo	*	*	*	*	*	*	*	*	*	*	*	*	*
=61	=61	=61	=61	=61	=61	=61	=61	=61	=61	=61	=61	=61	=61
!	!LO:SIC:s=4cc:v	!	!	!	!	!	!	!	!	!	!	!	!
4F\	4dd\	.	4ff\	.	2F\	A-	2F/	a-	2ff\	A-	1A	1f	4fff\
4FF/	16dd\LL	.	16ff\LL	.	.	.	.	.	.	.	.	.	4r
.	16cc\	.	16ee\	.	.	.	.	.	.	.	.	.	.
.	16b-\	.	16dd\	.	.	.	.	.	.	.	.	.	.
.	16a\JJ	.	16cc\JJ	.	.	.	.	.	.	.	.	.	.
4F\	8b-\L	.	8dd\L	.	2B-\	-men	2B-\	-men	2ff\	-men	.	.	4ddd\
.	8f\	.	8b-\	.	.	.	.	.	.	.	.	.	.
!LO:SIC:s=4B:v	!	!	!	!	!	!	!	!	!	!	!	!	!
4A\	8dd\	.	8ff\	.	.	.	.	.	.	.	.	.	4fff\
.	8b-\J	.	8dd\J	.	.	.	.	.	.	.	.	.	.
=62	=62	=62	=62	=62	=62	=62	=62	=62	=62	=62	=62	=62	=62
*	*	*	*	*	*	*ij	*	*ij	*	*ij	*	*	*
4F\	16a\LL	.	16cc\LL	.	2c\	A-	2c\	a-	2ff\	A-	4A/	4f\	4ccc\
.	16a\	.	16cc\	.	.	.	.	.	.	.	.	.	.
.	16a\	.	16cc\	.	.	.	.	.	.	.	.	.	.
.	16a\JJ	.	16cc\JJ	.	.	.	.	.	.	.	.	.	.
4A\	16ff\LL	.	16aa\LL	.	.	.	.	.	.	.	4f\	4a\	4aa\
.	16ff\	.	16aa\	.	.	.	.	.	.	.	.	.	.
.	16ff\	.	16aa\	.	.	.	.	.	.	.	.	.	.
.	16ff\JJ	.	16aa\JJ	.	.	.	.	.	.	.	.	.	.
4B-\	16gg\LL	.	16bb-\LL	.	2C/	-men	2C/	-men	2ff\	-men	4g\	4b-\	4bb-\
.	16gg\	.	16bb-\	.	.	.	.	.	.	.	.	.	.
.	16gg\	.	16bb-\	.	.	.	.	.	.	.	.	.	.
.	16gg\JJ	.	16bb-\JJ	.	.	.	.	.	.	.	.	.	.
4c\	16ee\LL	.	16gg\LL	.	.	.	.	.	.	.	4c/	4g\	4gg\
.	16ee\	.	16gg\	.	.	.	.	.	.	.	.	.	.
.	16ee\	.	16gg\	.	.	.	.	.	.	.	.	.	.
.	16ee\JJ	.	16gg\JJ	.	.	.	.	.	.	.	.	.	.
!	!	!	!	!	!LO:LB:g=original	!	!	!	!	!	!	!LO:LB:g=original	!
=63	=63	=63	=63	=63	=63	=63	=63	=63	=63	=63	=63	=63	=63
!	!LO:SIC:s=4cc:v	!	!	!	!	!	!	!	!	!	!	!	!
4F\	4dd\	.	4ff\	.	2F\	A-	2F/	a-	2ff\	A-	1F	1f	4fff\
4FF/	16dd\LL	.	16ff\LL	.	.	.	.	.	.	.	.	.	4r
.	16cc\	.	16ee\	.	.	.	.	.	.	.	.	.	.
.	16b-\	.	16dd\	.	.	.	.	.	.	.	.	.	.
.	16a\JJ	.	16cc\JJ	.	.	.	.	.	.	.	.	.	.
4F\	8b-\L	.	8dd\L	.	2B-\	-men	2B-/	-men	2ff\	-men	.	.	4ddd\
.	8f\	.	8b-\	.	.	.	.	.	.	.	.	.	.
!LO:SIC:s=4B:v	!	!	!	!	!	!	!	!	!	!	!	!	!
4A\	8dd\	.	8ff\	.	.	.	.	.	.	.	.	.	4fff\
.	8b-\J	.	8dd\J	.	.	.	.	.	.	.	.	.	.
!	!LO:LB:g=original	!	!	!	!	!	!	!	!	!	!	!	!LO:LB:g=original
=64	=64	=64	=64	=64	=64	=64	=64	=64	=64	=64	=64	=64	=64
4F\	16a\LL	.	16cc\LL	.	2c\	A-	2c\	a-	2ff\	A-	4A/	4f\	4ccc\
.	16a\	.	16cc\	.	.	.	.	.	.	.	.	.	.
.	16a\	.	16cc\	.	.	.	.	.	.	.	.	.	.
.	16a\JJ	.	16cc\JJ	.	.	.	.	.	.	.	.	.	.
4A\	16ff\LL	.	16aa\LL	.	.	.	.	.	.	.	4f\	4a\	4aa\
.	16ff\	.	16aa\	.	.	.	.	.	.	.	.	.	.
.	16ff\	.	16aa\	.	.	.	.	.	.	.	.	.	.
.	16ff\JJ	.	16aa\JJ	.	.	.	.	.	.	.	.	.	.
4B-\	16gg\LL	.	16bb-\LL	.	2C/	-men	2C/	-men	2ee\	-men	4g\	4b-\	4bb-\
.	16gg\	.	16bb-\	.	.	.	.	.	.	.	.	.	.
.	16gg\	.	16bb-\	.	.	.	.	.	.	.	.	.	.
.	16gg\JJ	.	16bb-\JJ	.	.	.	.	.	.	.	.	.	.
4c\	16ee\LL	.	16gg\LL	.	.	.	.	.	.	.	4c/	4g\	4gg\
.	16ee\	.	16gg\	.	.	.	.	.	.	.	.	.	.
.	16ee\	.	16gg\	.	.	.	.	.	.	.	.	.	.
.	16ee\JJ	.	16gg\JJ	.	.	.	.	.	.	.	.	.	.
!LO:LB:g=original	!	!	!	!	!	!	!	!	!	!	!	!	!
=65	=65	=65	=65	=65	=65	=65	=65	=65	=65	=65	=65	=65	=65
8F\L	16ff\LL	.	16ff\LL	.	2F\	A-	2F/	a-	2ff\	A-	4A/	4f\	4ff\
.	16ff\	.	16ff\	.	.	.	.	.	.	.	.	.	.
8F\	16ff\	.	16ff\	.	.	.	.	.	.	.	.	.	.
.	16ff\JJ	.	16ff\JJ	.	.	.	.	.	.	.	.	.	.
8F\	16aa\LL	.	16ccc\LL	.	.	.	.	.	.	.	4r	4r	4ccc\
.	16aa\	.	16ccc\	.	.	.	.	.	.	.	.	.	.
8F\J	16aa\	.	16ccc\	.	.	.	.	.	.	.	.	.	.
.	16aa\JJ	.	16ccc\JJ	.	.	.	.	.	.	.	.	.	.
*tremolo	*	*	*	*	*	*	*	*	*	*	*	*	*
!LO:SIC:s=2BB-:v	!	!	!	!	!LO:SIC:s=2B-:v	!	!LO:SIC:s=2B-:v	!	!	!	!	!	!
16C/LL	16bb-\LL	.	16ddd\LL	.	2A\	-men	2A/	-men	2dd\	-men	2r	2r	4ddd\
16C/	16bb-\	.	16ddd\	.	.	.	.	.	.	.	.	.	.
16C/	16bb-\	.	16ddd\	.	.	.	.	.	.	.	.	.	.
16C/	16bb-\JJ	.	16ddd\JJ	.	.	.	.	.	.	.	.	.	.
*	*	*	*	*	*	*Xij	*	*Xij	*	*	*	*	*
16C/	16gg\LL	.	16bb-\LL	.	.	.	.	.	.	.	.	.	4bb-\
16C/	16gg\	.	16bb-\	.	.	.	.	.	.	.	.	.	.
16C/	16gg\	.	16bb-\	.	.	.	.	.	.	.	.	.	.
16C/JJ	16gg\JJ	.	16bb-\JJ	.	.	.	.	.	.	.	.	.	.
=66	=66	=66	=66	=66	=66	=66	=66	=66	=66	=66	=66	=66	=66
*	*	*	*^	*	*	*	*	*	*	*	*	*	*
16F\LL	16ff\LL	.	16aa/LL	16cc\LL	.	2c\	A-	2c\	a-	2ff\	A-	2f\	2a\	2aa\
16F\	16ff\	.	16aa/	16cc\	.	.	.	.	.	.	.	.	.	.
16F\	16ff\	.	16aa/	16cc\	.	.	.	.	.	.	.	.	.	.
16F\	16ff\	.	16aa/	16cc\	.	.	.	.	.	.	.	.	.	.
16F\	16ff\	.	16aa/	16cc\	.	.	.	.	.	.	.	.	.	.
16F\	16ff\	.	16aa/	16cc\	.	.	.	.	.	.	.	.	.	.
16F\	16ff\	.	16aa/	16cc\	.	.	.	.	.	.	.	.	.	.
16F\JJ	16ff\JJ	.	16aa/JJ	16cc\JJ	.	.	.	.	.	.	.	.	.	.
16C/LL	16ee\LL	.	16gg/LL	16cc\LL	.	2C/	-men	2C/	-men	2ee\	-men	2c/	2g\	2gg\
16C/	16ee\	.	16gg/	16cc\	.	.	.	.	.	.	.	.	.	.
16C/	16ee\	.	16gg/	16cc\	.	.	.	.	.	.	.	.	.	.
16C/	16ee\	.	16gg/	16cc\	.	.	.	.	.	.	.	.	.	.
16C/	16ee\	.	16gg/	16cc\	.	.	.	.	.	.	.	.	.	.
16C/	16ee\	.	16gg/	16cc\	.	.	.	.	.	.	.	.	.	.
16C/	16ee\	.	16gg/	16cc\	.	.	.	.	.	.	.	.	.	.
16C/JJ	16ee\JJ	.	16gg/JJ	16cc\JJ	.	.	.	.	.	.	.	.	.	.
=67	=67	=67	=67	=67	=67	=67	=67	=67	=67	=67	=67	=67	=67	=67
!	!	!	!	!	!	!	!	!LO:TX:a:t=2	!	!	!	!	!	!
*	*	*	*	*	*	*	*ij	*	*	*	*	*	*	*
16FF/LL	16ff\LL	.	4ff/	4a\	.	4F\	A-	0r	.	4ff\	A-	4A/	4f\	4ff\
16FF/	16ff\	.	.	.	.	.	.	.	.	.	.	.	.	.
16FF/	16ff\	.	.	.	.	.	.	.	.	.	.	.	.	.
16FF/	16ff\JJ	.	.	.	.	.	.	.	.	.	.	.	.	.
16FF/	16aa\LL	.	16ccc/LL	16a\LL	.	4A\	-men	.	.	4ff\	-men	4r	4r	4ccc\
16FF/	16aa\	.	16ccc/	16a\	.	.	.	.	.	.	.	.	.	.
16FF/	16aa\	.	16ccc/	16a\	.	.	.	.	.	.	.	.	.	.
16FF/JJ	16aa\JJ	.	16ccc/JJ	16a\JJ	.	.	.	.	.	.	.	.	.	.
!LO:SIC:s=2B lub 2BB:v	!	!	!LO:SIC:s=4b-:v	!	!	!	!	!	!	!	!	!	!	!
16F\LL	16bb-\LL	.	16ddd/LL	16a\LL	.	4B-\	A-	.	.	4dd\	A-	2r	2r	4ddd\
16F\	16bb-\	.	16ddd/	16a\	.	.	.	.	.	.	.	.	.	.
16F\	16bb-\	.	16ddd/	16a\	.	.	.	.	.	.	.	.	.	.
16F\	16bb-\JJ	.	16ddd/JJ	16a\JJ	.	.	.	.	.	.	.	.	.	.
16F\	16gg\LL	.	16bb-\LL	4ryy	.	4d\	-men	.	.	4b-\	-men	.	.	4bb-\
16F\	16gg\	.	16bb-\	.	.	.	.	.	.	.	.	.	.	.
16F\	16gg\	.	16bb-\	.	.	.	.	.	.	.	.	.	.	.
16F\JJ	16gg\JJ	.	16bb-\JJ	.	.	.	.	.	.	.	.	.	.	.
*	*	*	*	*	*	*	*Xij	*	*	*	*Xij	*	*	*
*	*	*	*v	*v	*	*	*	*	*	*	*	*	*	*
!	!	!	!	!	!	!	!	!	!	!	!LO:LB:g=original	!	!
=68	=68	=68	=68	=68	=68	=68	=68	=68	=68	=68	=68	=68	=68
16c\LL	16ff\LL	.	16aa 16cc\LL	.	2c\	A-	.	.	2ff\	A-	2.f\	2a\	2aa\
16c\	16ff\	.	16aa 16cc\	.	.	.	.	.	.	.	.	.	.
16c\	16ff\	.	16aa 16cc\	.	.	.	.	.	.	.	.	.	.
16c\	16ff\	.	16aa 16cc\	.	.	.	.	.	.	.	.	.	.
16c\	16ff\	.	16aa 16cc\	.	.	.	.	.	.	.	.	.	.
16c\	16ff\	.	16aa 16cc\	.	.	.	.	.	.	.	.	.	.
16c\	16ff\	.	16aa 16cc\	.	.	.	.	.	.	.	.	.	.
16c\JJ	16ff\JJ	.	16aa 16cc\JJ	.	.	.	.	.	.	.	.	.	.
16C/LL	16ee\LL	.	16gg 16cc\LL	.	2C/	-men	.	.	2ee\	-men	.	2g\	2gg\
16C/	16ee\	.	16gg 16cc\	.	.	.	.	.	.	.	.	.	.
16C/	16ee\	.	16gg 16cc\	.	.	.	.	.	.	.	.	.	.
16C/	16ee\	.	16gg 16cc\	.	.	.	.	.	.	.	.	.	.
16C/	16ee\	.	16gg 16cc\	.	.	.	.	.	.	.	4c/	.	.
16C/	16ee\	.	16gg 16cc\	.	.	.	.	.	.	.	.	.	.
16C/	16ee\	.	16gg 16cc\	.	.	.	.	.	.	.	.	.	.
16C/JJ	16ee\JJ	.	16gg 16cc\JJ	.	.	.	.	.	.	.	.	.	.
*Xtremolo	*	*	*	*	*	*	*	*	*	*	*	*	*
*	*Xtremolo	*	*Xtremolo	*	*	*	*	*	*	*	*	*	*
=69	=69	=69	=69	=69	=69	=69	=69	=69	=69	=69	=69	=69	=69
4F\	4ff 4a/	.	4ff 4a\	.	2F\	A-	2F/	a-	2ff\	A-	4A/	4f\	4ff\
4F\	4ff 4a/	.	4ff 4a\	.	.	.	.	.	.	.	4A/	4f\	4ff\
4F\	4ff 4a/	.	4ff 4a\	.	4F\	-men	4F/	-men.	4ff\	-men	4A/	4f\	4ff\
4r	4r	.	4r	.	4r	.	4r	.	4r	.	4r	4r	4r
==	==	==	==	==	==	==	==	==	==	==	==	==	==
*-	*-	*-	*-	*-	*-	*-	*-	*-	*-	*-	*-	*-	*-
!!!system-decoration: s1,[g1][g2][g3]
!!!RDF**kern: i = editorial accidental
!!!RDF**kern: > = above
!!!RDF**kern: < = below
!!!ENC: Marta Lawrence
!!!END: 2020-09-08
!!!ENC: Andrzej Borzym
!!!END: 2020-05-31
